(1001)
(FACE)
(T1  D=3.175 CR=0. - ZMIN=-0.1 - FLAT END MILL)
G0 G90 G94 G17
G21
G53 Z0.

(FACE1)
M5
M9
T1
S12000 M3
G4 P4.
G55
M9
G0 X42.064 Y1.301
Z15.
Z5.
G1 Z0.218 F200.
G18 G3 X41.746 Z-0.1 I-0.318 K0.
G1 X40.
X0.
G17 G2 Y4.16 I0. J1.429
G1 X40.
G3 Y7.018 I0. J1.429
G1 X0.
G2 Y9.877 I0. J1.429
G1 X40.
G3 Y12.735 I0. J1.429
G1 X0.
G2 Y15.594 I0. J1.429
G1 X40.
G3 Y18.452 I0. J1.429
G1 X0.
G2 Y21.311 I0. J1.429
G1 X40.
G3 Y24.169 I0. J1.429
G1 X0.
G2 Y27.028 I0. J1.429
G1 X40.
G3 Y29.886 I0. J1.429
G1 X0.
G2 Y32.745 I0. J1.429
G1 X40.
G3 Y35.603 I0. J1.429
G1 X0.
G2 Y38.462 I0. J1.429
G1 X40.
G18 G2 X40.318 Z0.218 I0. K0.318
G0 Z15.
G17

M9
G53 Z0.
M30
