(1002)
(HOLE)
(T1  D=0.792 CR=0. - ZMIN=-0.45 - FLAT END MILL)
G0 G90 G94 G17
G21
G53 Z0.

(2D ADAPTIVE1)
M5
M9
T1
S12000 M3
G4 P4.
G55
M9
G0 X19.834 Y19.662
Z10.
Z5.
Z2.629
G1 Z2.55 F200.
G3 X20.166 Y20.338 Z2.509 I0.166 J0.338
X19.834 Y19.662 Z2.467 I-0.166 J-0.338
X20.166 Y20.338 Z2.426 I0.166 J0.338
X19.834 Y19.662 Z2.385 I-0.166 J-0.338
X20.166 Y20.338 Z2.344 I0.166 J0.338
X19.834 Y19.662 Z2.302 I-0.166 J-0.338
X20.166 Y20.338 Z2.261 I0.166 J0.338
X19.834 Y19.662 Z2.22 I-0.166 J-0.338
X20.166 Y20.338 Z2.178 I0.166 J0.338
X19.834 Y19.662 Z2.137 I-0.166 J-0.338
X20.166 Y20.338 Z2.096 I0.166 J0.338
X19.834 Y19.662 Z2.054 I-0.166 J-0.338
X20.166 Y20.338 Z2.013 I0.166 J0.338
X19.834 Y19.662 Z1.972 I-0.166 J-0.338
X20.166 Y20.338 Z1.931 I0.166 J0.338
X19.834 Y19.662 Z1.889 I-0.166 J-0.338
X20.166 Y20.338 Z1.848 I0.166 J0.338
X19.834 Y19.662 Z1.807 I-0.166 J-0.338
X20.166 Y20.338 Z1.765 I0.166 J0.338
X19.834 Y19.662 Z1.724 I-0.166 J-0.338
X20.166 Y20.338 Z1.683 I0.166 J0.338
X19.834 Y19.662 Z1.641 I-0.166 J-0.338
X20.166 Y20.338 Z1.6 I0.166 J0.338
X19.834 Y19.662 Z1.559 I-0.166 J-0.338
X20.166 Y20.338 Z1.518 I0.166 J0.338
X19.834 Y19.662 Z1.476 I-0.166 J-0.338
X20.166 Y20.338 Z1.435 I0.166 J0.338
X19.834 Y19.662 Z1.394 I-0.166 J-0.338
X20.166 Y20.338 Z1.352 I0.166 J0.338
X19.834 Y19.662 Z1.311 I-0.166 J-0.338
X20.166 Y20.338 Z1.27 I0.166 J0.338
X19.834 Y19.662 Z1.229 I-0.166 J-0.338
X20.166 Y20.338 Z1.187 I0.166 J0.338
X19.834 Y19.662 Z1.146 I-0.166 J-0.338
X20.166 Y20.338 Z1.105 I0.166 J0.338
X19.834 Y19.662 Z1.063 I-0.166 J-0.338
X20.166 Y20.338 Z1.022 I0.166 J0.338
X19.834 Y19.662 Z0.981 I-0.166 J-0.338
X20.166 Y20.338 Z0.939 I0.166 J0.338
X19.834 Y19.662 Z0.898 I-0.166 J-0.338
X20.166 Y20.338 Z0.857 I0.166 J0.338
X19.834 Y19.662 Z0.816 I-0.166 J-0.338
X20.166 Y20.338 Z0.774 I0.166 J0.338
X19.834 Y19.662 Z0.733 I-0.166 J-0.338
X20.166 Y20.338 Z0.692 I0.166 J0.338
X19.834 Y19.662 Z0.65 I-0.166 J-0.338
X20.166 Y20.338 Z0.609 I0.166 J0.338
X19.834 Y19.662 Z0.568 I-0.166 J-0.338
X20.166 Y20.338 Z0.526 I0.166 J0.338
X19.834 Y19.662 Z0.485 I-0.166 J-0.338
X20.166 Y20.338 Z0.444 I0.166 J0.338
X19.834 Y19.662 Z0.403 I-0.166 J-0.338
X20.166 Y20.338 Z0.361 I0.166 J0.338
X19.834 Y19.662 Z0.32 I-0.166 J-0.338
X20.166 Y20.338 Z0.279 I0.166 J0.338
X19.834 Y19.662 Z0.237 I-0.166 J-0.338
X20.166 Y20.338 Z0.196 I0.166 J0.338
X19.834 Y19.662 Z0.155 I-0.166 J-0.338
X20.166 Y20.338 Z0.113 I0.166 J0.338
X19.834 Y19.662 Z0.072 I-0.166 J-0.338
X20.166 Y20.338 Z0.031 I0.166 J0.338
X19.834 Y19.662 Z-0.01 I-0.166 J-0.338
X20.166 Y20.338 Z-0.052 I0.166 J0.338
X19.834 Y19.662 Z-0.093 I-0.166 J-0.338
X20.166 Y20.338 Z-0.134 I0.166 J0.338
X19.834 Y19.662 Z-0.176 I-0.166 J-0.338
X20.166 Y20.338 Z-0.217 I0.166 J0.338
X19.834 Y19.662 Z-0.258 I-0.166 J-0.338
X20.166 Y20.338 Z-0.299 I0.166 J0.338
X19.834 Y19.662 Z-0.341 I-0.166 J-0.338
X20.166 Y20.338 Z-0.382 I0.166 J0.338
X19.834 Y19.662 Z-0.423 I-0.166 J-0.338
X20.376 Y20. Z-0.45 I0.166 J0.338
X19.624 I-0.376 J0.
X20.376 I0.376 J0.
G1 X20.382 Y20.033
X20.386 Y20.088
X20.382 Y20.143
X20.369 Y20.197
X20.364 Y20.213
X20.357 Y20.231
X20.349 Y20.249
X20.329 Y20.27
G3 X20.262 Y20.176 I-0.033 J-0.047
X20.348 Y20.198 I0.033 J0.047
X20.349 Y20.249 I-0.055 J0.026
G1 X20.334 Y20.266
X20.21 Y20.357
X20.178 Y20.38
X20.163 Y20.391
X20.129 Y20.407
G3 X20.077 Y20.258 I-0.022 J-0.076
G1 X20.083 Y20.256
G3 X20.163 Y20.391 I0.031 J0.073
G1 X20.135 Y20.406
X20.121 Y20.41
X20.107 Y20.412
X19.996
X19.964
X19.896 Y20.402
X19.833 Y20.38
X19.775 Y20.346
G3 X19.85 Y20.209 I0.049 J-0.062
G1 X19.988 Y20.258
G3 X19.964 Y20.412 I-0.027 J0.075
G1 X19.893
X19.879 Y20.41
X19.865 Y20.406
X19.837 Y20.391
X19.751 Y20.329
X19.739 Y20.32
X19.707 Y20.296
X19.659 Y20.258
G3 X19.768 Y20.145 I0.063 J-0.049
G1 X19.798 Y20.167
G3 X19.707 Y20.296 I-0.047 J0.064
G1 X19.666 Y20.266
X19.651 Y20.249
X19.643 Y20.231
X19.636 Y20.213
X19.601 Y20.107
X19.589 Y20.068
X19.571 Y20.003
X19.576 Y19.997
X19.594
G3 X19.619 Y20.062 I-0.072 J0.065
X19.589 Y20.068 I-0.016 J0.
G1 X19.573 Y20.018
X19.571 Y20.
X19.573 Y19.982
X19.617 Y19.844
X19.624 Y19.822
X19.652 Y19.751
G3 X19.787 Y19.823 I0.059 J0.053
G1 X19.777 Y19.863
G3 X19.68 Y19.921 I-0.077 J-0.019
X19.624 Y19.822 I0.02 J-0.077
G1 X19.636 Y19.787
X19.643 Y19.769
X19.651 Y19.751
X19.666 Y19.734
X19.79 Y19.643
X19.822 Y19.62
X19.855 Y19.599
X19.865 Y19.594
G3 X19.934 Y19.734 I0.022 J0.076
G1 X19.918 Y19.746
G3 X19.822 Y19.62 I-0.047 J-0.064
G1 X19.837 Y19.609
X19.865 Y19.594
X19.879 Y19.59
X19.893 Y19.588
X20.004
X20.036
X20.104 Y19.598
X20.167 Y19.62
X20.225 Y19.654
G3 X20.15 Y19.791 I-0.049 J0.062
G1 X20.012 Y19.742
G3 X20.036 Y19.588 I0.027 J-0.075
G1 X20.107
X20.121 Y19.59
X20.135 Y19.594
X20.163 Y19.609
X20.249 Y19.671
X20.261 Y19.68
X20.293 Y19.704
X20.341 Y19.742
G3 X20.232 Y19.855 I-0.063 J0.049
G1 X20.202 Y19.833
G3 X20.293 Y19.704 I0.047 J-0.064
G1 X20.334 Y19.734
X20.349 Y19.751
X20.357 Y19.769
X20.364 Y19.787
X20.399 Y19.893
X20.411 Y19.932
X20.429 Y19.997
X20.424 Y20.003
X20.406
G3 X20.381 Y19.938 I0.072 J-0.065
X20.411 Y19.932 I0.016 J0.
G1 X20.427 Y19.982
X20.429 Y20.
X20.427 Y20.018
X20.369 Y20.197
X20.361 Y20.21 Z-0.446
X20.355 Y20.22 Z-0.434
X20.353 Y20.224 Z-0.419
G0 Z5.
X30.234 Y19.84
Z2.629
G1 Z2.55 F200.
G3 X30.566 Y20.516 Z2.509 I0.166 J0.338
X30.234 Y19.84 Z2.467 I-0.166 J-0.338
X30.566 Y20.516 Z2.426 I0.166 J0.338
X30.234 Y19.84 Z2.385 I-0.166 J-0.338
X30.566 Y20.516 Z2.344 I0.166 J0.338
X30.234 Y19.84 Z2.302 I-0.166 J-0.338
X30.566 Y20.516 Z2.261 I0.166 J0.338
X30.234 Y19.84 Z2.22 I-0.166 J-0.338
X30.566 Y20.516 Z2.178 I0.166 J0.338
X30.234 Y19.84 Z2.137 I-0.166 J-0.338
X30.566 Y20.516 Z2.096 I0.166 J0.338
X30.234 Y19.84 Z2.054 I-0.166 J-0.338
X30.566 Y20.516 Z2.013 I0.166 J0.338
X30.234 Y19.84 Z1.972 I-0.166 J-0.338
X30.566 Y20.516 Z1.931 I0.166 J0.338
X30.234 Y19.84 Z1.889 I-0.166 J-0.338
X30.566 Y20.516 Z1.848 I0.166 J0.338
X30.234 Y19.84 Z1.807 I-0.166 J-0.338
X30.566 Y20.516 Z1.765 I0.166 J0.338
X30.234 Y19.84 Z1.724 I-0.166 J-0.338
X30.566 Y20.516 Z1.683 I0.166 J0.338
X30.234 Y19.84 Z1.641 I-0.166 J-0.338
X30.566 Y20.516 Z1.6 I0.166 J0.338
X30.234 Y19.84 Z1.559 I-0.166 J-0.338
X30.566 Y20.516 Z1.518 I0.166 J0.338
X30.234 Y19.84 Z1.476 I-0.166 J-0.338
X30.566 Y20.516 Z1.435 I0.166 J0.338
X30.234 Y19.84 Z1.394 I-0.166 J-0.338
X30.566 Y20.516 Z1.352 I0.166 J0.338
X30.234 Y19.84 Z1.311 I-0.166 J-0.338
X30.566 Y20.516 Z1.27 I0.166 J0.338
X30.234 Y19.84 Z1.229 I-0.166 J-0.338
X30.566 Y20.516 Z1.187 I0.166 J0.338
X30.234 Y19.84 Z1.146 I-0.166 J-0.338
X30.566 Y20.516 Z1.105 I0.166 J0.338
X30.234 Y19.84 Z1.063 I-0.166 J-0.338
X30.566 Y20.516 Z1.022 I0.166 J0.338
X30.234 Y19.84 Z0.981 I-0.166 J-0.338
X30.566 Y20.516 Z0.939 I0.166 J0.338
X30.234 Y19.84 Z0.898 I-0.166 J-0.338
X30.566 Y20.516 Z0.857 I0.166 J0.338
X30.234 Y19.84 Z0.816 I-0.166 J-0.338
X30.566 Y20.516 Z0.774 I0.166 J0.338
X30.234 Y19.84 Z0.733 I-0.166 J-0.338
X30.566 Y20.516 Z0.692 I0.166 J0.338
X30.234 Y19.84 Z0.65 I-0.166 J-0.338
X30.566 Y20.516 Z0.609 I0.166 J0.338
X30.234 Y19.84 Z0.568 I-0.166 J-0.338
X30.566 Y20.516 Z0.526 I0.166 J0.338
X30.234 Y19.84 Z0.485 I-0.166 J-0.338
X30.566 Y20.516 Z0.444 I0.166 J0.338
X30.234 Y19.84 Z0.403 I-0.166 J-0.338
X30.566 Y20.516 Z0.361 I0.166 J0.338
X30.234 Y19.84 Z0.32 I-0.166 J-0.338
X30.566 Y20.516 Z0.279 I0.166 J0.338
X30.234 Y19.84 Z0.237 I-0.166 J-0.338
X30.566 Y20.516 Z0.196 I0.166 J0.338
X30.234 Y19.84 Z0.155 I-0.166 J-0.338
X30.566 Y20.516 Z0.113 I0.166 J0.338
X30.234 Y19.84 Z0.072 I-0.166 J-0.338
X30.566 Y20.516 Z0.031 I0.166 J0.338
X30.234 Y19.84 Z-0.01 I-0.166 J-0.338
X30.566 Y20.516 Z-0.052 I0.166 J0.338
X30.234 Y19.84 Z-0.093 I-0.166 J-0.338
X30.566 Y20.516 Z-0.134 I0.166 J0.338
X30.234 Y19.84 Z-0.176 I-0.166 J-0.338
X30.566 Y20.516 Z-0.217 I0.166 J0.338
X30.234 Y19.84 Z-0.258 I-0.166 J-0.338
X30.566 Y20.516 Z-0.299 I0.166 J0.338
X30.234 Y19.84 Z-0.341 I-0.166 J-0.338
X30.566 Y20.516 Z-0.382 I0.166 J0.338
X30.234 Y19.84 Z-0.423 I-0.166 J-0.338
X30.776 Y20.178 Z-0.45 I0.166 J0.338
X30.024 I-0.376 J0.
X30.776 I0.376 J0.
G1 X30.789 Y20.252
X30.787 Y20.327
X30.731 Y20.466
X30.614 Y20.56
X30.473 Y20.61
X30.323 Y20.609
X30.182 Y20.558
X30.066 Y20.462
X29.99 Y20.333
X29.962 Y20.186
X29.985 Y20.037
X30.057 Y19.906
X30.169 Y19.806
X30.308 Y19.749
X30.457 Y19.743
X30.601 Y19.788
X30.72 Y19.879
X30.802 Y20.004
X30.838 Y20.15
X30.851 Y20.299
X30.809 Y20.443
X30.714 Y20.559
X30.585 Y20.636
X30.439 Y20.671
X30.289 Y20.663
X30.149 Y20.61
X30.032 Y20.517
X29.949 Y20.392
X29.908 Y20.247
X29.912 Y20.097
X29.959 Y19.955
X30.046 Y19.833
X30.164 Y19.741
X30.305 Y19.688
X30.455 Y19.681
X30.599 Y19.72
X30.725 Y19.801
X30.821 Y19.916
X30.879 Y20.055
X30.907 Y20.202
X30.9 Y20.352
X30.85 Y20.493
X30.752 Y20.607
X30.625 Y20.687
X30.481 Y20.729
X30.331 Y20.731
X30.186 Y20.692
X30.057 Y20.616
X29.952 Y20.509
X29.881 Y20.377
X29.847 Y20.231
X29.852 Y20.081
X29.898 Y19.938
X29.98 Y19.812
X30.093 Y19.713
X30.228 Y19.648
X30.375 Y19.621
X30.525 Y19.635
X30.665 Y19.688
X30.786 Y19.777
X30.879 Y19.895
X30.937 Y20.033
X30.968 Y20.18
X30.967 Y20.33
X30.926 Y20.474
X30.843 Y20.599
X30.728 Y20.696
X30.593 Y20.761
X30.446 Y20.791
X30.296 Y20.786
X30.152 Y20.744
X30.023 Y20.669
X29.915 Y20.563
X29.838 Y20.435
X29.793 Y20.292
X29.786 Y20.142
X29.814 Y19.995
X29.876 Y19.858
X29.968 Y19.74
X30.086 Y19.648
X30.223 Y19.586
X30.371 Y19.56
X30.52 Y19.57
X30.663 Y19.617
X30.789 Y19.698
X30.892 Y19.807
X30.966 Y19.938
X31.012 Y20.08
X31.031 Y20.229
X31.017 Y20.379
X30.969 Y20.521
X30.884 Y20.644
X30.771 Y20.743
X30.638 Y20.812
X30.492 Y20.849
X30.342 Y20.853
X30.195 Y20.824
X30.058 Y20.763
X29.938 Y20.673
X29.84 Y20.559
X29.77 Y20.427
X29.731 Y20.282
X29.725 Y20.132
X29.751 Y19.984
X29.81 Y19.846
X29.897 Y19.724
X30.009 Y19.625
X30.14 Y19.552
X30.284 Y19.51
X30.434 Y19.501
X30.582 Y19.525
X30.721 Y19.581
X30.844 Y19.667
X30.946 Y19.777
X31.021 Y19.907
X31.07 Y20.049
X31.093 Y20.197
X31.086 Y20.347
X31.048 Y20.492
X30.976 Y20.624
X30.876 Y20.735
X30.754 Y20.822
X30.616 Y20.881
X30.469 Y20.911
X30.319
X30.172 Y20.881
X30.034 Y20.821
X29.912 Y20.735
X29.81 Y20.625
X29.732 Y20.497
X29.683 Y20.355
X29.663 Y20.206
X29.674 Y20.056
X29.714 Y19.912
X29.782 Y19.778
X29.875 Y19.661
X29.99 Y19.565
X30.122 Y19.493
X30.266 Y19.45
X30.415 Y19.437
X30.564 Y19.455
X30.706 Y19.504
X30.835 Y19.581
X30.946 Y19.682
X31.034 Y19.803
X31.099 Y19.938
X31.139 Y20.083
X31.154 Y20.232
X31.142 Y20.381
X31.1 Y20.525
X31.029 Y20.657
X30.931 Y20.771
X30.811 Y20.862
X30.676 Y20.927
X30.532 Y20.966
X30.382 Y20.977
X30.233 Y20.96
X30.09 Y20.915
X29.957 Y20.845
X29.84 Y20.75
X29.744 Y20.636
X29.67 Y20.505
X29.622 Y20.363
X29.601 Y20.215
X29.608 Y20.065
X29.643 Y19.919
X29.705 Y19.782
X29.792 Y19.66
X29.899 Y19.555
X30.025 Y19.473
X30.163 Y19.414
X30.309 Y19.383
X30.459 Y19.379
X30.607 Y19.404
X30.748 Y19.457
X30.876 Y19.535
X30.988 Y19.635
X31.079 Y19.754
X31.148 Y19.887
X31.194 Y20.03
X31.216 Y20.178
X31.212 Y20.328
X31.182 Y20.475
X31.125 Y20.614
X31.042 Y20.739
X30.936 Y20.845
X30.813 Y20.93
X30.676 Y20.992
X30.53 Y21.028
X30.381 Y21.039
X30.232 Y21.024
X30.087 Y20.983
X29.952 Y20.917
X29.831 Y20.828
X29.728 Y20.72
X29.645 Y20.595
X29.585 Y20.457
X29.55 Y20.311
X29.54 Y20.162
X29.556 Y20.013
X29.597 Y19.868
X29.663 Y19.734
X29.751 Y19.612
X29.859 Y19.508
X29.983 Y19.423
X30.12 Y19.362
X30.265 Y19.325
X30.415 Y19.314
X30.564 Y19.33
X30.708 Y19.372
X30.842 Y19.438
X30.964 Y19.527
X31.068 Y19.635
X31.152 Y19.759
X31.216 Y19.894
X31.258 Y20.038
X31.278 Y20.187
X31.274 Y20.337
X31.245 Y20.484
X31.191 Y20.624
X31.112 Y20.752
X31.012 Y20.863
X30.893 Y20.955
X30.761 Y21.026
X30.619 Y21.073
X30.471 Y21.097
X30.321
X30.173 Y21.073
X30.031 Y21.025
X29.898 Y20.955
X29.779 Y20.864
X29.676 Y20.754
X29.593 Y20.63
X29.531 Y20.493
X29.508 Y20.412
X29.502 Y20.382
X29.498 Y20.351
X29.496 Y20.32
Y20.139
X29.504 Y19.989
X29.541 Y19.844
X29.605 Y19.708
X29.691 Y19.585
X29.796 Y19.478
X29.916 Y19.388
X30.05 Y19.32
X30.193 Y19.275
X30.341 Y19.254
X30.491 Y19.257
X30.639 Y19.285
X30.78 Y19.336
X30.911 Y19.41
X31.028 Y19.503
X31.129 Y19.614
X31.212 Y19.739
X31.276 Y19.875
X31.289 Y19.92
X31.297 Y19.953
X31.302 Y19.986
X31.304 Y20.02
G3 X31.23 Y20.096 I-0.079 J-0.003
G1 X29.581 Y20.215
G3 X29.496 Y20.139 I-0.006 J-0.079
G1 Y19.925
X29.504 Y19.776
X29.574 Y19.643
X29.664 Y19.523
X29.771 Y19.418
X29.893 Y19.33
X30.026 Y19.262
X30.169 Y19.216
X30.317 Y19.191
X30.467 Y19.19
X30.615 Y19.213
X30.758 Y19.258
X30.893 Y19.324
X31.016 Y19.409
X31.125 Y19.512
X31.218 Y19.63
X31.257 Y19.697
X31.283 Y19.752
X31.298 Y19.811
X31.304 Y19.872
G3 X31.227 Y19.948 I-0.079 J-0.003
G1 X29.578 Y20.002
G3 X29.496 Y19.925 I-0.003 J-0.079
G1 Y19.783
X29.5 Y19.708
X29.553 Y19.568
X29.647 Y19.451
X29.757 Y19.35
X29.881 Y19.265
X30.016 Y19.2
X30.159 Y19.154
X30.307 Y19.129
X30.457 Y19.126
X30.606 Y19.145
X30.75 Y19.186
X30.887 Y19.247
X31.014 Y19.327
X31.128 Y19.424
X31.228 Y19.536
X31.247 Y19.566
X31.278 Y19.625
X31.297 Y19.69
X31.304 Y19.756
G3 X31.226 Y19.833 I-0.079 J-0.003
G1 X29.577 Y19.86
G3 X29.496 Y19.783 I-0.001 J-0.079
G1 Y19.68
X29.5 Y19.605
X29.555 Y19.465
X29.656 Y19.355
X29.773 Y19.261
X29.901 Y19.183
X30.039 Y19.124
X30.184 Y19.085
X30.333 Y19.065
X30.483 Y19.066
X30.631 Y19.087
X30.775 Y19.128
X30.913 Y19.189
X31.04 Y19.267
X31.157 Y19.362
X31.209 Y19.418
X31.261 Y19.489
X31.293 Y19.57
X31.304 Y19.657
G3 X31.226 Y19.734 I-0.079 J-0.003
G1 X29.577 Y19.756
G3 X29.496 Y19.68 I-0.001 J-0.079
G1 Y19.57
X29.5 Y19.495
X29.567 Y19.36
X29.675 Y19.256
X29.797 Y19.17
X29.93 Y19.1
X30.071 Y19.049
X30.217 Y19.015
X30.366 Y19.001
X30.516 Y19.006
X30.664 Y19.03
X30.808 Y19.073
X30.945 Y19.135
X31.073 Y19.213
X31.19 Y19.306
X31.217 Y19.336
X31.264 Y19.405
X31.294 Y19.484
X31.304 Y19.567
G3 X31.225 Y19.644 I-0.079 J-0.003
G1 X29.576 Y19.646
G3 X29.496 Y19.57 I0. J-0.079
G1 Y19.467
X29.5 Y19.392
X29.578 Y19.264
X29.692 Y19.166
X29.818 Y19.085
X29.954 Y19.022
X30.097 Y18.976
X30.245 Y18.948
X30.394 Y18.938
X30.544 Y18.946
X30.692 Y18.972
X30.835 Y19.016
X30.972 Y19.077
X31.101 Y19.154
X31.219 Y19.246
X31.229 Y19.258
X31.27 Y19.324
X31.295 Y19.397
X31.304 Y19.475
G3 X31.224 Y19.551 I-0.079 J-0.003
G1 X29.575 Y19.543
G3 X29.496 Y19.467 I0. J-0.079
G1 Y19.395
X29.5 Y19.321
X29.567 Y19.186
X29.685 Y19.094
X29.814 Y19.017
X29.951 Y18.956
X30.094 Y18.912
X30.168 Y18.899
X30.189 Y18.897
X30.21 Y18.896
G3 X30.251 Y19.042 I-0.003 J0.079
G1 X29.619 Y19.459
G3 X29.496 Y19.395 I-0.044 J-0.066
G1 Y19.285
X29.498 Y19.248
X29.524 Y19.177
X29.623 Y19.064
X29.747 Y18.98
X29.844 Y18.932
X29.893 Y18.912
X29.945 Y18.9
X29.998 Y18.896
G3 X30.042 Y19.039 I-0.003 J0.079
G1 X29.622 Y19.346
G3 X29.496 Y19.285 I-0.047 J-0.064
G1 Y19.214
Y19.182
Y19.143
X29.498 Y19.105
X29.606 Y19.001
X29.675 Y18.955
X29.735 Y18.923
X29.801 Y18.903
X29.869 Y18.896
G3 X29.905 Y19.044 I-0.003 J0.079
G1 X29.615 Y19.209
G3 X29.496 Y19.143 I-0.039 J-0.069
G1 Y19.072
Y19.04
Y19.004
X29.499 Y18.977
X29.501 Y18.969
X29.5 Y18.973
X29.496 Y19.004
X29.497 Y18.986
X29.501 Y18.969
X29.509 Y18.952
X29.523 Y18.935
X29.533 Y18.923
X29.55 Y18.909
G3 X29.614 Y19.019 I0.032 J0.055
X29.519 Y18.954 I-0.032 J-0.055
X29.533 Y18.923 I0.064 J0.01
G1 X29.545 Y18.912
X29.556 Y18.905
X29.567 Y18.9
X29.578 Y18.898
X29.593 Y18.896
X30.491
X30.641 Y18.904
X30.788 Y18.934
X30.929 Y18.986
X31.062 Y19.055
X31.187 Y19.138
X31.202 Y19.153
X31.257 Y19.226
X31.292 Y19.31
X31.304 Y19.4
G3 X31.185 Y19.466 I-0.079 J-0.003
G1 X30.455 Y19.044
G3 X30.491 Y18.896 I0.04 J-0.069
G1 X30.744
X30.894 Y18.904
X31.031 Y18.964
X31.16 Y19.04
X31.19 Y19.068
X31.252 Y19.142
X31.29 Y19.23
X31.304 Y19.326
G3 X31.178 Y19.387 I-0.079 J-0.003
G1 X30.7 Y19.04
G3 X30.744 Y18.896 I0.047 J-0.064
G1 X30.918
X30.957
X30.989
X31.027 Y18.898
X31.161 Y18.965
X31.191 Y18.993
X31.252 Y19.067
X31.291 Y19.155
X31.304 Y19.25
G3 X31.164 Y19.299 I-0.079 J-0.003
G1 X30.932 Y19.027
G3 X30.989 Y18.896 I0.06 J-0.052
G1 X31.06
X31.1
X31.132
X31.159 Y18.898
X31.181 Y18.917
X31.247 Y18.992
X31.289 Y19.083
X31.304 Y19.182
G3 X31.152 Y19.212 I-0.079 J-0.003
G1 X31.062 Y19.007
G3 X31.132 Y18.896 I0.072 J-0.032
G1 X31.171
X31.203
X31.215
X31.239 Y18.901
X31.235 Y18.914
X31.23 Y18.918
X31.202 Y18.921
X31.215 Y18.896
X31.227 Y18.898
X31.239 Y18.901
X31.25 Y18.906
X31.262 Y18.913
X31.274 Y18.925
X31.288 Y18.947
X31.295 Y18.958
X31.299 Y18.969
X31.303 Y18.986
X31.304 Y20.359
X31.296 Y20.509
X31.247 Y20.651
X31.17 Y20.78
X31.073 Y20.893
X30.957 Y20.989
X30.828 Y21.066
X30.792 Y21.08
X30.751 Y21.093
X30.708 Y21.101
X30.664 Y21.104
G3 X30.607 Y20.974 I0.003 J-0.079
G1 X31.164 Y20.311
G3 X31.304 Y20.359 I0.061 J0.051
G1 Y20.533
X31.296 Y20.683
X31.222 Y20.814
X31.126 Y20.929
X31.013 Y21.028
X30.979 Y21.05
X30.92 Y21.079
X30.857 Y21.098
X30.792 Y21.104
G3 X30.735 Y20.972 I0.003 J-0.079
G1 X31.165 Y20.484
G3 X31.304 Y20.533 I0.059 J0.052
G1 Y20.676
X31.3 Y20.751
X31.241 Y20.888
X31.141 Y21.
X31.11 Y21.025
X31.043 Y21.068
X30.969 Y21.095
X30.89 Y21.104
G3 X30.835 Y20.97 I0.003 J-0.079
G1 X31.167 Y20.624
G3 X31.304 Y20.676 I0.057 J0.055
G1 Y20.786
Y20.818
Y20.857
X31.302 Y20.895
X31.213 Y21.016
X31.2 Y21.027
X31.133 Y21.069
X31.059 Y21.095
X30.981 Y21.104
G3 X30.939 Y20.959 I0.003 J-0.079
G1 X31.18 Y20.794
G3 X31.304 Y20.857 I0.045 J0.065
G1 Y20.928
Y20.96
Y20.996
X31.301 Y21.023
X31.299 Y21.031
X31.3 Y21.027
X31.304 Y20.996
X31.303 Y21.014
X31.299 Y21.031
X31.295 Y21.042
X31.288 Y21.053
X31.274 Y21.075
X31.255 Y21.091
X31.25 Y21.094
G3 X31.215 Y21.005 I-0.018 J-0.045
X31.272 Y21.022 I0.018 J0.045
X31.274 Y21.075 I-0.04 J0.027
G1 X31.262 Y21.087
X31.25 Y21.094
X31.239 Y21.099
X31.227 Y21.102
X31.215 Y21.104
X30.207
X30.057 Y21.096
X29.919 Y21.039
X29.793 Y20.957
X29.682 Y20.856
X29.588 Y20.739
X29.543 Y20.662
X29.517 Y20.606
X29.502 Y20.547
X29.496 Y20.486
G3 X29.627 Y20.429 I0.079 J0.003
G1 X30.256 Y20.964
G3 X30.207 Y21.104 I-0.051 J0.06
G1 X30.026
X29.951 Y21.1
X29.812 Y21.043
X29.692 Y20.952
X29.589 Y20.844
X29.559 Y20.801
X29.525 Y20.739
X29.503 Y20.671
X29.496 Y20.601
G3 X29.63 Y20.546 I0.079 J0.003
G1 X30.077 Y20.967
G3 X30.026 Y21.104 I-0.054 J0.058
G1 X29.922
X29.883
X29.851
X29.814 Y21.102
X29.684 Y21.026
X29.574 Y20.924
X29.562 Y20.906
X29.526 Y20.843
X29.504 Y20.774
X29.496 Y20.702
G3 X29.636 Y20.654 I0.079 J0.003
G1 X29.909 Y20.973
G3 X29.851 Y21.104 I-0.06 J0.052
G1 X29.812
X29.78
X29.741
X29.704 Y21.102
X29.581 Y21.016
X29.575 Y21.008
X29.532 Y20.941
X29.505 Y20.866
X29.496 Y20.787
G3 X29.641 Y20.745 I0.079 J0.003
G1 X29.803 Y20.979
G3 X29.741 Y21.104 I-0.065 J0.045
G1 X29.67
X29.638
X29.608
X29.577 Y21.102
X29.608 Y21.104
X29.593
X29.578 Y21.102
X29.567 Y21.1
X29.556 Y21.095
X29.545 Y21.088
X29.52 Y21.062
X29.513 Y21.053
G3 X29.528 Y20.956 I0.055 J-0.041
X29.625 Y20.973 I0.04 J0.056
G1 X29.636 Y20.989
G3 X29.545 Y21.088 I-0.057 J0.039
G1 X29.533 Y21.077
X29.509 Y21.048
X29.501 Y21.031
X29.497 Y21.014
X29.496 Y20.32
G3 X29.503 Y20.29 I0.079 J0.003
G1 X29.516 Y20.262 Z-0.444
X29.527 Y20.239 Z-0.427
X29.534 Y20.223 Z-0.401
X29.536 Y20.218 Z-0.371
G0 Z10.

M9
G53 Z0.
M30
