(1003)
(SMALL HOLE)
(T1  D=0.396 CR=0. - ZMIN=-0.45 - FLAT END MILL)
G0 G90 G94 G17
G21
G53 Z0.

(2D ADAPTIVE2)
M5
M9
T1
S12000 M3
G4 P4.
G55
M9
G0 X19.885 Y13.649
Z10.
Z5.
Z2.59
G1 Z2.55 F40.
G3 X20.115 Y13.351 Z2.529 I0.115 J-0.149
X19.885 Y13.649 Z2.509 I-0.115 J0.149
X20.115 Y13.351 Z2.488 I0.115 J-0.149
X19.885 Y13.649 Z2.467 I-0.115 J0.149
X20.115 Y13.351 Z2.447 I0.115 J-0.149
X19.885 Y13.649 Z2.426 I-0.115 J0.149
X20.115 Y13.351 Z2.405 I0.115 J-0.149
X19.885 Y13.649 Z2.385 I-0.115 J0.149
X20.115 Y13.351 Z2.364 I0.115 J-0.149
X19.885 Y13.649 Z2.344 I-0.115 J0.149
X20.115 Y13.351 Z2.323 I0.115 J-0.149
X19.885 Y13.649 Z2.302 I-0.115 J0.149
X20.115 Y13.351 Z2.282 I0.115 J-0.149
X19.885 Y13.649 Z2.261 I-0.115 J0.149
X20.115 Y13.351 Z2.24 I0.115 J-0.149
X19.885 Y13.649 Z2.22 I-0.115 J0.149
X20.115 Y13.351 Z2.199 I0.115 J-0.149
X19.885 Y13.649 Z2.178 I-0.115 J0.149
X20.115 Y13.351 Z2.158 I0.115 J-0.149
X19.885 Y13.649 Z2.137 I-0.115 J0.149
X20.115 Y13.351 Z2.116 I0.115 J-0.149
X19.885 Y13.649 Z2.096 I-0.115 J0.149
X20.115 Y13.351 Z2.075 I0.115 J-0.149
X19.885 Y13.649 Z2.054 I-0.115 J0.149
X20.115 Y13.351 Z2.034 I0.115 J-0.149
X19.885 Y13.649 Z2.013 I-0.115 J0.149
X20.115 Y13.351 Z1.992 I0.115 J-0.149
X19.885 Y13.649 Z1.972 I-0.115 J0.149
X20.115 Y13.351 Z1.951 I0.115 J-0.149
X19.885 Y13.649 Z1.931 I-0.115 J0.149
X20.115 Y13.351 Z1.91 I0.115 J-0.149
X19.885 Y13.649 Z1.889 I-0.115 J0.149
X20.115 Y13.351 Z1.869 I0.115 J-0.149
X19.885 Y13.649 Z1.848 I-0.115 J0.149
X20.115 Y13.351 Z1.827 I0.115 J-0.149
X19.885 Y13.649 Z1.807 I-0.115 J0.149
X20.115 Y13.351 Z1.786 I0.115 J-0.149
X19.885 Y13.649 Z1.765 I-0.115 J0.149
X20.115 Y13.351 Z1.745 I0.115 J-0.149
X19.885 Y13.649 Z1.724 I-0.115 J0.149
X20.115 Y13.351 Z1.703 I0.115 J-0.149
X19.885 Y13.649 Z1.683 I-0.115 J0.149
X20.115 Y13.351 Z1.662 I0.115 J-0.149
X19.885 Y13.649 Z1.641 I-0.115 J0.149
X20.115 Y13.351 Z1.621 I0.115 J-0.149
X19.885 Y13.649 Z1.6 I-0.115 J0.149
X20.115 Y13.351 Z1.58 I0.115 J-0.149
X19.885 Y13.649 Z1.559 I-0.115 J0.149
X20.115 Y13.351 Z1.538 I0.115 J-0.149
X19.885 Y13.649 Z1.518 I-0.115 J0.149
X20.115 Y13.351 Z1.497 I0.115 J-0.149
X19.885 Y13.649 Z1.476 I-0.115 J0.149
X20.115 Y13.351 Z1.456 I0.115 J-0.149
X19.885 Y13.649 Z1.435 I-0.115 J0.149
X20.115 Y13.351 Z1.414 I0.115 J-0.149
X19.885 Y13.649 Z1.394 I-0.115 J0.149
X20.115 Y13.351 Z1.373 I0.115 J-0.149
X19.885 Y13.649 Z1.352 I-0.115 J0.149
X20.115 Y13.351 Z1.332 I0.115 J-0.149
X19.885 Y13.649 Z1.311 I-0.115 J0.149
X20.115 Y13.351 Z1.29 I0.115 J-0.149
X19.885 Y13.649 Z1.27 I-0.115 J0.149
X20.115 Y13.351 Z1.249 I0.115 J-0.149
X19.885 Y13.649 Z1.229 I-0.115 J0.149
X20.115 Y13.351 Z1.208 I0.115 J-0.149
X19.885 Y13.649 Z1.187 I-0.115 J0.149
X20.115 Y13.351 Z1.167 I0.115 J-0.149
X19.885 Y13.649 Z1.146 I-0.115 J0.149
X20.115 Y13.351 Z1.125 I0.115 J-0.149
X19.885 Y13.649 Z1.105 I-0.115 J0.149
X20.115 Y13.351 Z1.084 I0.115 J-0.149
X19.885 Y13.649 Z1.063 I-0.115 J0.149
X20.115 Y13.351 Z1.043 I0.115 J-0.149
X19.885 Y13.649 Z1.022 I-0.115 J0.149
X20.115 Y13.351 Z1.001 I0.115 J-0.149
X19.885 Y13.649 Z0.981 I-0.115 J0.149
X20.115 Y13.351 Z0.96 I0.115 J-0.149
X19.885 Y13.649 Z0.939 I-0.115 J0.149
X20.115 Y13.351 Z0.919 I0.115 J-0.149
X19.885 Y13.649 Z0.898 I-0.115 J0.149
X20.115 Y13.351 Z0.877 I0.115 J-0.149
X19.885 Y13.649 Z0.857 I-0.115 J0.149
X20.115 Y13.351 Z0.836 I0.115 J-0.149
X19.885 Y13.649 Z0.816 I-0.115 J0.149
X20.115 Y13.351 Z0.795 I0.115 J-0.149
X19.885 Y13.649 Z0.774 I-0.115 J0.149
X20.115 Y13.351 Z0.754 I0.115 J-0.149
X19.885 Y13.649 Z0.733 I-0.115 J0.149
X20.115 Y13.351 Z0.712 I0.115 J-0.149
X19.885 Y13.649 Z0.692 I-0.115 J0.149
X20.115 Y13.351 Z0.671 I0.115 J-0.149
X19.885 Y13.649 Z0.65 I-0.115 J0.149
X20.115 Y13.351 Z0.63 I0.115 J-0.149
X19.885 Y13.649 Z0.609 I-0.115 J0.149
X20.115 Y13.351 Z0.588 I0.115 J-0.149
X19.885 Y13.649 Z0.568 I-0.115 J0.149
X20.115 Y13.351 Z0.547 I0.115 J-0.149
X19.885 Y13.649 Z0.526 I-0.115 J0.149
X20.115 Y13.351 Z0.506 I0.115 J-0.149
X19.885 Y13.649 Z0.485 I-0.115 J0.149
X20.115 Y13.351 Z0.465 I0.115 J-0.149
X19.885 Y13.649 Z0.444 I-0.115 J0.149
X20.115 Y13.351 Z0.423 I0.115 J-0.149
X19.885 Y13.649 Z0.403 I-0.115 J0.149
X20.115 Y13.351 Z0.382 I0.115 J-0.149
X19.885 Y13.649 Z0.361 I-0.115 J0.149
X20.115 Y13.351 Z0.341 I0.115 J-0.149
X19.885 Y13.649 Z0.32 I-0.115 J0.149
X20.115 Y13.351 Z0.299 I0.115 J-0.149
X19.885 Y13.649 Z0.279 I-0.115 J0.149
X20.115 Y13.351 Z0.258 I0.115 J-0.149
X19.885 Y13.649 Z0.237 I-0.115 J0.149
X20.115 Y13.351 Z0.217 I0.115 J-0.149
X19.885 Y13.649 Z0.196 I-0.115 J0.149
X20.115 Y13.351 Z0.175 I0.115 J-0.149
X19.885 Y13.649 Z0.155 I-0.115 J0.149
X20.115 Y13.351 Z0.134 I0.115 J-0.149
X19.885 Y13.649 Z0.113 I-0.115 J0.149
X20.115 Y13.351 Z0.093 I0.115 J-0.149
X19.885 Y13.649 Z0.072 I-0.115 J0.149
X20.115 Y13.351 Z0.052 I0.115 J-0.149
X19.885 Y13.649 Z0.031 I-0.115 J0.149
X20.115 Y13.351 Z0.01 I0.115 J-0.149
X19.885 Y13.649 Z-0.01 I-0.115 J0.149
X20.115 Y13.351 Z-0.031 I0.115 J-0.149
X19.885 Y13.649 Z-0.052 I-0.115 J0.149
X20.115 Y13.351 Z-0.072 I0.115 J-0.149
X19.885 Y13.649 Z-0.093 I-0.115 J0.149
X20.115 Y13.351 Z-0.114 I0.115 J-0.149
X19.885 Y13.649 Z-0.134 I-0.115 J0.149
X20.115 Y13.351 Z-0.155 I0.115 J-0.149
X19.885 Y13.649 Z-0.176 I-0.115 J0.149
X20.115 Y13.351 Z-0.196 I0.115 J-0.149
X19.885 Y13.649 Z-0.217 I-0.115 J0.149
X20.115 Y13.351 Z-0.238 I0.115 J-0.149
X19.885 Y13.649 Z-0.258 I-0.115 J0.149
X20.115 Y13.351 Z-0.279 I0.115 J-0.149
X19.885 Y13.649 Z-0.299 I-0.115 J0.149
X20.115 Y13.351 Z-0.32 I0.115 J-0.149
X19.885 Y13.649 Z-0.341 I-0.115 J0.149
X20.115 Y13.351 Z-0.361 I0.115 J-0.149
X19.885 Y13.649 Z-0.382 I-0.115 J0.149
X20.115 Y13.351 Z-0.403 I0.115 J-0.149
X19.885 Y13.649 Z-0.423 I-0.115 J0.149
X20.115 Y13.351 Z-0.444 I0.115 J-0.149
X20.188 Y13.5 Z-0.45 I-0.115 J0.149
X19.812 I-0.188 J0.
X20.188 I0.188 J0.
G1 X20.197 Y13.537
X20.189 Y13.573
X20.156 Y13.641
X20.096 Y13.685
X20.024 Y13.707
X19.949 Y13.702
X19.881 Y13.671
X19.828 Y13.618
X19.797 Y13.549
X19.793 Y13.474
X19.816 Y13.403
X19.862 Y13.344
X19.926 Y13.305
X20. Y13.292
X20.074 Y13.305
X20.138 Y13.344
X20.184 Y13.403
X20.207 Y13.474
X20.217 Y13.548
X20.189 Y13.618
X20.146 Y13.679
X20.078 Y13.711
X20.005 Y13.729
X19.931 Y13.718
X19.864 Y13.684
X19.812 Y13.629
X19.781 Y13.561
X19.774 Y13.487
X19.792 Y13.414
X19.832 Y13.35
X19.89 Y13.303
X19.961 Y13.278
X20.036 Y13.277
X20.107 Y13.299
X20.167 Y13.345
X20.209 Y13.407
X20.228 Y13.48
X20.235 Y13.542
X20.212 Y13.613
X20.176 Y13.67
X20.121 Y13.714
X20.05 Y13.738
X19.988 Y13.747
X19.916 Y13.734
X19.85 Y13.698
X19.802 Y13.648
X19.768 Y13.581
X19.756 Y13.507
X19.767 Y13.432
X19.799 Y13.365
X19.849 Y13.31
X19.914 Y13.273
X19.987 Y13.256
X20.058 Y13.262
X20.128 Y13.288
X20.181 Y13.332
X20.223 Y13.393
X20.244 Y13.465
X20.251 Y13.516
X20.241 Y13.592
X20.238 Y13.607
X20.234 Y13.623
X20.229 Y13.638
X20.219 Y13.661
X20.214 Y13.673
X20.207 Y13.685
X20.188 Y13.701
X20.169 Y13.714
X20.148 Y13.724
G3 X20.115 Y13.652 I-0.014 J-0.037
G1 X20.153 Y13.632
G3 X20.207 Y13.685 I0.019 J0.035
G1 X20.194 Y13.699
X20.182 Y13.71
X20.146 Y13.725
X20.126 Y13.733
X20.097 Y13.745
X20.046 Y13.764
X19.988
X19.963 Y13.763
X19.939 Y13.758
X19.915 Y13.75
G3 X19.93 Y13.675 I0.016 J-0.036
G1 X20.079 Y13.67
G3 X20.097 Y13.745 I0.001 J0.04
G1 X20.049 Y13.765
X20.027 Y13.774
X20.016 Y13.779
X20.002 Y13.782
X20.016 Y13.779
X20.005 Y13.782
X20.
X19.995
X19.984 Y13.779
X19.903 Y13.745
X19.874 Y13.733
X19.842 Y13.718
X19.8 Y13.674
X19.785 Y13.656
X19.773 Y13.637
X19.763 Y13.617
G3 X19.829 Y13.576 I0.037 J-0.014
G1 X19.917 Y13.669
G3 X19.874 Y13.733 I-0.029 J0.027
G1 X19.83 Y13.715
X19.818 Y13.71
X19.806 Y13.699
X19.79 Y13.68
G3 X19.855 Y13.636 I0.035 J-0.018
G1 X19.86 Y13.642
G3 X19.806 Y13.699 I-0.029 J0.027
G1 X19.793 Y13.685
X19.786 Y13.673
X19.757 Y13.603
X19.751 Y13.588
X19.74 Y13.561
X19.729 Y13.532
X19.75 Y13.419
X19.758 Y13.394
G3 X19.834 Y13.416 I0.036 J0.016
G1 X19.815 Y13.55
G3 X19.74 Y13.561 I-0.039 J-0.005
G1 X19.721 Y13.515
X19.719 Y13.503
X19.72 Y13.49
X19.723 Y13.478
X19.759 Y13.393
X19.779 Y13.349
X19.837 Y13.295
X19.854 Y13.281
X19.873 Y13.269
X19.893 Y13.259
G3 X19.935 Y13.324 I0.014 J0.037
G1 X19.824 Y13.435
G3 X19.759 Y13.393 I-0.028 J-0.028
G1 X19.779 Y13.345
X19.788 Y13.322
X19.796 Y13.31
X19.809 Y13.295
G3 X19.863 Y13.301 I0.023 J0.04
X19.804 Y13.367 I-0.029 J0.033
X19.796 Y13.31 I0.029 J-0.033
G1 X19.808 Y13.296
X19.82 Y13.289
X19.903 Y13.255
X19.92 Y13.248
X19.951 Y13.235
X19.998 Y13.218
X20. Y13.22
X20.007 Y13.23
X20.011 Y13.236
G3 X19.955 Y13.25 I-0.028 J0.006
G1 X19.951 Y13.235
X19.988 Y13.22
X20. Y13.218
X20.012 Y13.22
X20.08 Y13.248
X20.139 Y13.276
X20.178 Y13.306
X20.202 Y13.327
X20.222 Y13.353
X20.236 Y13.381
G3 X20.174 Y13.426 I-0.037 J0.014
G1 X20.041 Y13.315
G3 X20.08 Y13.248 I0.025 J-0.03
G1 X20.146 Y13.275
X20.169 Y13.284
X20.18 Y13.289
X20.191 Y13.297
X20.2 Y13.306
X20.208 Y13.317
G3 X20.142 Y13.361 I-0.033 J0.021
G1 X20.134 Y13.349
G3 X20.18 Y13.289 I0.032 J-0.023
G1 X20.192 Y13.296
X20.204 Y13.31
X20.212 Y13.322
X20.241 Y13.393
X20.243 Y13.397
X20.262 Y13.442
X20.271 Y13.468
X20.269 Y13.511
X20.267 Y13.533
X20.262 Y13.554
X20.255 Y13.574
G3 X20.179 Y13.555 I-0.036 J-0.016
G1 X20.186 Y13.456
G3 X20.262 Y13.442 I0.04 J0.003
G1 X20.272 Y13.466
X20.277 Y13.478
X20.28 Y13.49
X20.281 Y13.505
G3 X20.251 Y13.532 I-0.033 J-0.006
X20.245 Y13.467 I-0.003 J-0.033
X20.28 Y13.49 I0.003 J0.033
G1 X20.281 Y13.503
X20.279 Y13.515
X20.229 Y13.638
X20.22 Y13.65
X20.208 Y13.666 Z-0.445
X20.2 Y13.678 Z-0.43
X20.196 Y13.682 Z-0.41
G0 Z10.

M9
G53 Z0.
M30
