(1004)
(DIAL ETCH)
(T1  D=0.396 CR=0. - ZMIN=-0.1 - FLAT END MILL)
G0 G90 G94 G17
G21
G53 Z0.

(TRACE1)
M5
M9
T1
S12000 M3
G4 P4.
G55
M9
G0 X30.638 Y26.575
Z3.
Z0.9
G1 Z-0.1 F40.
X32.37 Y27.575
X32.745 Y26.925
X31.013 Y25.925
X30.638 Y26.575
Z0.9
G0 Z2.
X29.808 Y26.524
Z0.9
G1 Z-0.1 F40.
Y26.254
X29.805 Y26.232
X29.804 Y26.217
X29.802 Y26.203
X29.799 Y26.189
X29.796 Y26.174
X29.794 Y26.168
X29.79 Y26.154
X29.785 Y26.14
X29.78 Y26.126
X29.771 Y26.106
X29.762 Y26.086
X29.257 Y25.034
X29.81
Y24.884
X29.052
Y24.974
X29.637 Y26.189
Y26.644
X29.247
Y26.215
X29.076
Y26.659
X29.077 Y26.673
X29.079 Y26.686
X29.08 Y26.695
X29.081 Y26.699
X29.084 Y26.708
X29.085 Y26.712
X29.089 Y26.72
X29.093 Y26.727
X29.098 Y26.735
X29.106 Y26.746
X29.114 Y26.757
X29.125 Y26.765
X29.132 Y26.77
X29.143 Y26.778
X29.151 Y26.782
X29.159 Y26.785
X29.167 Y26.788
X29.172 Y26.789
X29.18 Y26.791
X29.194 Y26.793
X29.203 Y26.794
X29.212
X29.672
X29.686 Y26.793
X29.699 Y26.792
X29.704 Y26.791
X29.712 Y26.789
X29.717 Y26.788
X29.725 Y26.785
X29.733 Y26.782
X29.741 Y26.778
X29.752 Y26.77
X29.763 Y26.762
X29.77 Y26.757
X29.778 Y26.746
X29.786 Y26.735
X29.791 Y26.727
X29.795 Y26.72
X29.799 Y26.712
X29.801 Y26.703
X29.803 Y26.695
X29.805 Y26.686
X29.807 Y26.668
X29.808 Y26.659
Y26.524
Z0.9
G0 Z2.
X27.568 Y25.928
Z0.9
G1 Z-0.1 F40.
X27.022 Y24.396
X27.637
X27.624 Y24.365
X27.619 Y24.355
X27.61 Y24.335
X27.605 Y24.326
X27.599 Y24.316
X27.594 Y24.307
X27.588 Y24.298
X27.581 Y24.29
X27.574 Y24.282
X27.567 Y24.274
X27.559 Y24.267
X27.551 Y24.26
X27.543 Y24.253
X27.534 Y24.247
X27.525 Y24.24
X27.507 Y24.228
X27.488 Y24.217
X27.468 Y24.206
X27.452 Y24.199
X27.429 Y24.19
X27.413 Y24.184
X27.396 Y24.179
X27.388 Y24.177
X27.372 Y24.173
X27.364 Y24.171
X27.355 Y24.169
X27.339 Y24.167
X27.322 Y24.165
X27.288 Y24.163
X27.271 Y24.162
X26.707
X26.679 Y24.163
X26.653 Y24.164
X26.64 Y24.165
X26.627 Y24.166
X26.614 Y24.168
X26.602 Y24.171
X26.591 Y24.174
X26.58 Y24.177
X26.569 Y24.182
X26.56 Y24.187
X26.551 Y24.193
X26.542 Y24.2
X26.535 Y24.208
X26.528 Y24.217
X26.522 Y24.227
X26.516 Y24.238
X26.511 Y24.249
X26.506 Y24.26
X26.502 Y24.272
X26.498 Y24.285
X26.49 Y24.31
X26.491 Y24.332
X26.493 Y24.346
X26.494 Y24.354
X26.496 Y24.361
X26.5 Y24.375
X26.503 Y24.385
X26.506 Y24.396
X27.049 Y25.928
X27.568
Z0.9
G0 Z2.
X26.515 Y24.396
Z0.9
G1 Z-0.1 F40.
X26.502 Y24.365
X26.493 Y24.345
X26.488 Y24.335
X26.483 Y24.326
X26.477 Y24.316
X26.472 Y24.307
X26.466 Y24.298
X26.459 Y24.29
X26.452 Y24.282
X26.445 Y24.274
X26.437 Y24.267
X26.429 Y24.26
X26.421 Y24.253
X26.412 Y24.247
X26.403 Y24.24
X26.385 Y24.228
X26.366 Y24.217
X26.346 Y24.206
X26.323 Y24.196
X26.306 Y24.19
X26.282 Y24.181
X26.266 Y24.177
X26.25 Y24.173
X26.233 Y24.169
X26.216 Y24.167
X26.2 Y24.165
X26.174 Y24.163
X26.149 Y24.162
X25.584
X25.557 Y24.163
X25.531 Y24.164
X25.517 Y24.165
X25.505 Y24.166
X25.492 Y24.168
X25.48 Y24.171
X25.469 Y24.174
X25.458 Y24.177
X25.447 Y24.182
X25.438 Y24.187
X25.429 Y24.193
X25.42 Y24.2
X25.413 Y24.208
X25.406 Y24.217
X25.4 Y24.227
X25.394 Y24.238
X25.389 Y24.249
X25.384 Y24.26
X25.38 Y24.272
X25.376 Y24.285
X25.368 Y24.31
X25.369 Y24.328
X25.371 Y24.343
X25.372 Y24.354
X25.375 Y24.364
X25.378 Y24.375
X25.381 Y24.385
X25.384 Y24.396
X25.927 Y25.928
X26.446
X25.899 Y24.396
X26.515
Z0.9
G0 Z2.
X25.39
Z0.9
G1 Z-0.1 F40.
X25.379 Y24.369
X25.371 Y24.351
X25.367 Y24.342
X25.363 Y24.333
X25.358 Y24.325
X25.354 Y24.317
X25.349 Y24.309
X25.343 Y24.301
X25.337 Y24.293
X25.331 Y24.286
X25.325 Y24.279
X25.318 Y24.272
X25.311 Y24.266
X25.304 Y24.26
X25.289 Y24.247
X25.273 Y24.236
X25.249 Y24.219
X25.222 Y24.206
X25.196 Y24.194
X25.187 Y24.19
X25.169 Y24.184
X25.16 Y24.181
X25.15 Y24.178
X25.141 Y24.175
X25.132 Y24.173
X25.122 Y24.171
X25.113 Y24.169
X25.103 Y24.168
X25.084 Y24.166
X25.064 Y24.164
X25.025 Y24.162
X24.124
X24.081
X24.039 Y24.163
X23.998 Y24.165
X23.958 Y24.169
X23.918 Y24.173
X23.88 Y24.179
X23.843 Y24.187
X23.807 Y24.197
X23.774 Y24.209
X23.742 Y24.224
X23.712 Y24.242
X23.684 Y24.262
X23.658 Y24.285
X23.635 Y24.312
X23.613 Y24.341
X23.594 Y24.372
X23.575 Y24.406
X23.558 Y24.441
X23.542 Y24.477
X23.527 Y24.514
X23.512 Y24.552
X23.497 Y24.591
X23.503 Y24.635
X23.506 Y24.657
X23.509 Y24.679
X23.513 Y24.7
X23.517 Y24.722
X23.522 Y24.743
X23.528 Y24.763
X23.534 Y24.783
X23.542 Y24.803
X23.55 Y24.822
X23.56 Y24.84
X23.57 Y24.858
X23.582 Y24.875
X23.595 Y24.891
X23.609 Y24.907
X23.624 Y24.922
X23.639 Y24.938
X23.655 Y24.952
X23.671 Y24.967
X23.688 Y24.981
X23.74 Y25.023
X23.799 Y25.053
X23.818 Y25.063
X23.838 Y25.073
X23.858 Y25.082
X23.878 Y25.091
X23.898 Y25.099
X23.918 Y25.107
X23.938 Y25.114
X23.959 Y25.121
X23.979 Y25.127
X24. Y25.132
X24.021 Y25.136
X24.042 Y25.14
X24.064 Y25.144
X24.085 Y25.146
X24.107 Y25.149
X24.129 Y25.151
X24.151 Y25.153
X24.172 Y25.154
X24.238 Y25.158
X24.451
X24.493 Y25.156
X24.521 Y25.155
X24.548 Y25.153
X24.576 Y25.151
X24.59 Y25.149
X24.603 Y25.147
X24.631 Y25.143
X24.644 Y25.14
X24.657 Y25.137
X24.684 Y25.13
X24.711 Y25.122
X24.738 Y25.114
X24.777 Y25.101
X24.815 Y25.082
X24.827 Y25.076
X24.839 Y25.069
X24.851 Y25.063
X24.863 Y25.056
X24.874 Y25.048
X24.884 Y25.041
X24.894 Y25.032
X24.903 Y25.024
X24.912 Y25.014
X24.92 Y25.005
X24.928 Y24.994
X24.934 Y24.983
X24.94 Y24.972
X24.945 Y24.96
X24.951 Y24.948
X24.955 Y24.935
X24.959 Y24.922
X24.963 Y24.909
X24.967 Y24.896
X24.974 Y24.869
X24.971 Y24.842
X24.967 Y24.816
X24.965 Y24.802
X24.962 Y24.79
X24.959 Y24.777
X24.955 Y24.764
X24.951 Y24.752
X24.947 Y24.741
X24.941 Y24.729
X24.935 Y24.718
X24.929 Y24.708
X24.921 Y24.697
X24.913 Y24.688
X24.904 Y24.678
X24.895 Y24.669
X24.886 Y24.66
X24.876 Y24.651
X24.855 Y24.634
X24.834 Y24.617
X24.823 Y24.608
X24.338
X24.496 Y24.923
X24.187
X24.066 Y24.568
X24.063 Y24.557
X24.061 Y24.548
X24.059 Y24.541
X24.058 Y24.531
X24.057 Y24.515
X24.064 Y24.494
X24.068 Y24.484
X24.073 Y24.474
X24.077 Y24.464
X24.082 Y24.455
X24.087 Y24.446
X24.093 Y24.438
X24.099 Y24.431
X24.106 Y24.425
X24.113 Y24.419
X24.121 Y24.414
X24.13 Y24.41
X24.139 Y24.407
X24.148 Y24.404
X24.158 Y24.402
X24.169 Y24.4
X24.179 Y24.399
X24.19 Y24.397
X24.201
X24.224 Y24.396
X25.39
Z0.9
G0 Z2.
X23.545
Z0.9
G1 Z-0.1 F40.
X23.541 Y24.378
X23.536 Y24.36
X23.534 Y24.351
X23.531 Y24.342
X23.528 Y24.333
X23.524 Y24.325
X23.521 Y24.316
X23.517 Y24.309
X23.513 Y24.301
X23.508 Y24.293
X23.503 Y24.286
X23.497 Y24.279
X23.491 Y24.272
X23.485 Y24.266
X23.478 Y24.26
X23.471 Y24.253
X23.464 Y24.247
X23.449 Y24.236
X23.427 Y24.219
X23.401 Y24.206
X23.383 Y24.198
X23.374 Y24.194
X23.357 Y24.187
X23.348 Y24.183
X23.339 Y24.18
X23.33 Y24.177
X23.32 Y24.175
X23.311 Y24.173
X23.302 Y24.171
X23.292 Y24.169
X23.273 Y24.167
X23.254 Y24.165
X23.225 Y24.163
X23.206 Y24.162
X22.407
X22.381 Y24.166
X22.368 Y24.168
X22.355 Y24.171
X22.342 Y24.174
X22.33 Y24.177
X22.318 Y24.181
X22.307 Y24.185
X22.297 Y24.19
X22.287 Y24.196
X22.278 Y24.202
X22.27 Y24.209
X22.263 Y24.218
X22.256 Y24.227
X22.251 Y24.237
X22.246 Y24.247
X22.242 Y24.258
X22.238 Y24.27
X22.235 Y24.282
X22.232 Y24.295
X22.229 Y24.308
X22.225 Y24.334
X22.223 Y24.348
X22.285 Y24.373
X22.302 Y24.38
X22.359 Y24.402
X22.386 Y24.416
X22.4 Y24.423
X22.413 Y24.43
X22.42 Y24.434
X22.432 Y24.442
X22.445 Y24.451
X22.451 Y24.456
X22.462 Y24.466
X22.479 Y24.481
X22.495 Y24.498
X22.505 Y24.509
X22.516 Y24.525
X22.526 Y24.542
X22.535 Y24.558
X22.54 Y24.566
X22.544 Y24.575
X22.552 Y24.592
X22.555 Y24.601
X22.558 Y24.61
X22.56 Y24.619
X22.563 Y24.628
X22.565 Y24.637
X22.567 Y24.656
X22.57 Y24.675
X22.572 Y24.704
X22.573 Y24.723
X22.57 Y24.744
X22.567 Y24.757
X22.564 Y24.771
X22.56 Y24.784
X22.558 Y24.79
X22.555 Y24.796
X22.552 Y24.802
X22.549 Y24.808
X22.545 Y24.814
X22.541 Y24.819
X22.537 Y24.825
X22.528 Y24.835
X22.523 Y24.84
X22.514 Y24.85
X22.498 Y24.865
X22.479 Y24.878
X22.461 Y24.89
X22.454 Y24.894
X22.448 Y24.898
X22.434 Y24.904
X22.428 Y24.907
X22.421 Y24.91
X22.414 Y24.912
X22.407 Y24.914
X22.4 Y24.916
X22.392 Y24.917
X22.378 Y24.92
X22.37
X22.355 Y24.922
X22.34 Y24.923
X22.333
X21.874 Y23.598
X21.342
X22.003 Y25.512
X22.533
X22.412 Y25.158
X22.485
X22.521
X22.558 Y25.157
X22.594 Y25.156
X22.631 Y25.154
X22.649 Y25.153
X22.667 Y25.152
X22.685 Y25.15
X22.722 Y25.146
X22.776 Y25.139
X22.848 Y25.127
X22.886 Y25.111
X22.904 Y25.103
X22.922 Y25.095
X22.94 Y25.086
X22.957 Y25.077
X22.973 Y25.067
X22.988 Y25.057
X23.003 Y25.046
X23.017 Y25.035
X23.029 Y25.022
X23.04 Y25.009
X23.05 Y24.994
X23.059 Y24.979
X23.066 Y24.963
X23.072 Y24.946
X23.077 Y24.928
X23.082 Y24.91
X23.086 Y24.891
X23.089 Y24.871
X23.092 Y24.852
X23.094 Y24.832
X23.099 Y24.792
X23.093 Y24.759
X23.089 Y24.737
X23.086 Y24.727
X23.084 Y24.716
X23.081 Y24.706
X23.078 Y24.695
X23.074 Y24.685
X23.07 Y24.675
X23.066 Y24.665
X23.061 Y24.656
X23.056 Y24.646
X23.051 Y24.637
X23.046 Y24.627
X23.034 Y24.609
X23.021 Y24.591
X23.008 Y24.573
X22.995 Y24.556
X22.97 Y24.529
X22.953 Y24.512
X22.945 Y24.503
X22.928 Y24.487
X22.919 Y24.479
X22.91 Y24.472
X22.9 Y24.464
X22.891 Y24.458
X22.881 Y24.451
X22.871 Y24.445
X22.861 Y24.439
X22.85 Y24.434
X22.829 Y24.423
X22.807 Y24.414
X22.773 Y24.4
X22.762 Y24.396
X23.545
Z0.9
G0 Z2.
X21.625
Z0.9
G1 Z-0.1 F40.
X21.621 Y24.378
X21.616 Y24.36
X21.613 Y24.351
X21.61 Y24.342
X21.607 Y24.333
X21.604 Y24.325
X21.6 Y24.316
X21.597 Y24.309
X21.592 Y24.301
X21.587 Y24.293
X21.582 Y24.286
X21.577 Y24.279
X21.571 Y24.272
X21.564 Y24.266
X21.558 Y24.26
X21.544 Y24.247
X21.529 Y24.236
X21.506 Y24.219
X21.48 Y24.206
X21.463 Y24.198
X21.454 Y24.194
X21.436 Y24.187
X21.427 Y24.183
X21.418 Y24.18
X21.409 Y24.177
X21.4 Y24.175
X21.391 Y24.173
X21.381 Y24.171
X21.372 Y24.169
X21.353 Y24.167
X21.334 Y24.165
X21.305 Y24.163
X21.285 Y24.162
X20.487
X20.46 Y24.166
X20.447 Y24.168
X20.434 Y24.171
X20.422 Y24.174
X20.41 Y24.177
X20.398 Y24.181
X20.387 Y24.185
X20.376 Y24.19
X20.367 Y24.196
X20.358 Y24.202
X20.35 Y24.209
X20.342 Y24.218
X20.336 Y24.227
X20.33 Y24.237
X20.326 Y24.247
X20.321 Y24.258
X20.317 Y24.27
X20.314 Y24.282
X20.311 Y24.295
X20.309 Y24.308
X20.304 Y24.334
X20.302 Y24.348
X20.359 Y24.371
X20.399 Y24.386
X20.427 Y24.397
X20.438 Y24.402
X20.459 Y24.412
X20.479 Y24.423
X20.493 Y24.43
X20.499 Y24.434
X20.512 Y24.442
X20.524 Y24.451
X20.53 Y24.456
X20.542 Y24.466
X20.558 Y24.481
X20.58 Y24.503
X20.585 Y24.509
X20.595 Y24.525
X20.605 Y24.542
X20.615 Y24.558
X20.619 Y24.566
X20.624 Y24.575
X20.631 Y24.592
X20.635 Y24.601
X20.637 Y24.61
X20.64 Y24.619
X20.642 Y24.628
X20.644 Y24.637
X20.646 Y24.646
X20.647 Y24.656
X20.649 Y24.675
X20.651 Y24.694
X20.652 Y24.723
X20.649 Y24.744
X20.647 Y24.757
X20.644 Y24.771
X20.642 Y24.778
X20.64 Y24.784
X20.638 Y24.79
X20.635 Y24.796
X20.632 Y24.802
X20.628 Y24.808
X20.625 Y24.814
X20.621 Y24.819
X20.617 Y24.825
X20.608 Y24.835
X20.603 Y24.84
X20.593 Y24.85
X20.578 Y24.865
X20.559 Y24.878
X20.54 Y24.89
X20.534 Y24.894
X20.527 Y24.898
X20.514 Y24.904
X20.5 Y24.91
X20.493 Y24.912
X20.486 Y24.914
X20.479 Y24.916
X20.472 Y24.917
X20.457 Y24.92
X20.45
X20.435 Y24.922
X20.42 Y24.923
X20.412
X19.954 Y23.598
X19.422
X20.083 Y25.512
X20.613
X20.491 Y25.158
X20.565
X20.601
X20.638 Y25.157
X20.674 Y25.156
X20.711 Y25.154
X20.729 Y25.153
X20.747 Y25.152
X20.765 Y25.15
X20.801 Y25.146
X20.856 Y25.139
X20.928 Y25.127
X20.965 Y25.111
X20.983 Y25.103
X21.002 Y25.095
X21.019 Y25.086
X21.036 Y25.077
X21.052 Y25.067
X21.068 Y25.057
X21.083 Y25.046
X21.096 Y25.035
X21.109 Y25.022
X21.12 Y25.009
X21.129 Y24.994
X21.138 Y24.979
X21.145 Y24.963
X21.152 Y24.946
X21.157 Y24.928
X21.162 Y24.91
X21.166 Y24.891
X21.169 Y24.871
X21.171 Y24.852
X21.174 Y24.832
X21.178 Y24.792
X21.173 Y24.759
X21.168 Y24.737
X21.166 Y24.727
X21.163 Y24.716
X21.16 Y24.706
X21.157 Y24.695
X21.154 Y24.685
X21.15 Y24.675
X21.146 Y24.665
X21.141 Y24.656
X21.136 Y24.646
X21.131 Y24.637
X21.125 Y24.627
X21.119 Y24.618
X21.107 Y24.6
X21.088 Y24.573
X21.074 Y24.556
X21.05 Y24.529
X21.033 Y24.512
X21.024 Y24.503
X21.007 Y24.487
X20.998 Y24.479
X20.989 Y24.472
X20.98 Y24.464
X20.97 Y24.458
X20.961 Y24.451
X20.95 Y24.445
X20.94 Y24.439
X20.93 Y24.434
X20.908 Y24.423
X20.886 Y24.414
X20.853 Y24.4
X20.841 Y24.396
X21.625
Z0.9
G0 Z2.
X19.711
Z0.9
G1 Z-0.1 F40.
X19.692 Y24.36
X19.682 Y24.342
X19.673 Y24.325
X19.663 Y24.308
X19.652 Y24.292
X19.641 Y24.276
X19.629 Y24.262
X19.617 Y24.248
X19.604 Y24.235
X19.59 Y24.224
X19.576 Y24.214
X19.56 Y24.205
X19.544 Y24.197
X19.527 Y24.191
X19.509 Y24.185
X19.49 Y24.18
X19.472 Y24.176
X19.452 Y24.173
X19.433 Y24.17
X19.413 Y24.167
X19.372 Y24.163
X19.352 Y24.162
X18.796
X18.767
X18.753 Y24.163
X18.739
X18.725 Y24.164
X18.711 Y24.165
X18.698 Y24.167
X18.685 Y24.17
X18.672 Y24.172
X18.66 Y24.176
X18.649 Y24.181
X18.638 Y24.186
X18.628 Y24.192
X18.619 Y24.199
X18.611 Y24.208
X18.603 Y24.217
X18.596 Y24.227
X18.59 Y24.238
X18.584 Y24.25
X18.578 Y24.262
X18.573 Y24.275
X18.568 Y24.288
X18.564 Y24.301
X18.559 Y24.314
X18.518 Y24.275
X18.489 Y24.25
X18.475 Y24.238
X18.461 Y24.227
X18.446 Y24.216
X18.431 Y24.205
X18.415 Y24.196
X18.399 Y24.187
X18.383 Y24.179
X18.367 Y24.172
X18.35 Y24.165
X18.333 Y24.16
X18.315 Y24.155
X18.297 Y24.151
X18.279 Y24.147
X18.26 Y24.144
X18.242 Y24.141
X18.204 Y24.136
X18.167 Y24.132
X18.128 Y24.135
X18.102 Y24.138
X18.09 Y24.139
X18.077 Y24.141
X18.065 Y24.144
X18.052 Y24.146
X18.04 Y24.149
X18.028 Y24.153
X18.016 Y24.157
X18.005 Y24.161
X17.994 Y24.167
X17.983 Y24.172
X17.972 Y24.178
X17.961 Y24.185
X17.95 Y24.192
X17.94 Y24.199
X17.929 Y24.206
X17.909 Y24.222
X17.888 Y24.238
X17.872 Y24.258
X17.857 Y24.278
X17.849 Y24.288
X17.842 Y24.299
X17.835 Y24.309
X17.828 Y24.32
X17.822 Y24.331
X17.816 Y24.342
X17.811 Y24.353
X17.806 Y24.364
X17.802 Y24.376
X17.799 Y24.388
X17.795 Y24.4
X17.793 Y24.412
X17.791 Y24.424
X17.789 Y24.437
X17.787 Y24.449
X17.784 Y24.475
X17.782 Y24.5
X17.781 Y24.513
X17.786 Y24.561
X17.789 Y24.584
X17.792 Y24.608
X17.795 Y24.631
X17.799 Y24.654
X17.803 Y24.677
X17.809 Y24.699
X17.815 Y24.721
X17.821 Y24.743
X17.829 Y24.764
X17.838 Y24.784
X17.849 Y24.804
X17.86 Y24.823
X17.873 Y24.842
X17.886 Y24.861
X17.901 Y24.878
X17.916 Y24.896
X17.931 Y24.913
X17.948 Y24.93
X17.964 Y24.947
X17.981 Y24.964
X18.016 Y24.997
X18.056 Y25.021
X18.076 Y25.033
X18.097 Y25.045
X18.117 Y25.056
X18.138 Y25.067
X18.158 Y25.078
X18.179 Y25.088
X18.2 Y25.097
X18.222 Y25.106
X18.243 Y25.114
X18.265 Y25.121
X18.287 Y25.127
X18.309 Y25.133
X18.332 Y25.137
X18.355 Y25.141
X18.378 Y25.145
X18.401 Y25.147
X18.424 Y25.15
X18.471 Y25.154
X18.542 Y25.158
X19.378
X19.103 Y24.396
X19.711
Z0.9
G0 Z2.
X18.604 Y24.923
Z0.9
G1 Z-0.1 F40.
X18.442
X18.339 Y24.582
X18.336 Y24.568
X18.333 Y24.556
X18.332 Y24.546
X18.331 Y24.531
Y24.524
X18.343 Y24.499
X18.349 Y24.487
X18.355 Y24.476
X18.361 Y24.465
X18.369 Y24.455
X18.376 Y24.445
X18.384 Y24.436
X18.393 Y24.428
X18.402 Y24.421
X18.412 Y24.415
X18.423 Y24.41
X18.434 Y24.406
X18.445 Y24.403
X18.458 Y24.4
X18.47 Y24.398
X18.483 Y24.396
X18.496
X18.51 Y24.395
X18.523
X18.551
X18.58 Y24.396
X18.766 Y24.923
X18.604
Z0.9
G0 Z2.
X17.818 Y24.396
Z0.9
G1 Z-0.1 F40.
X17.81 Y24.376
X17.801 Y24.356
X17.796 Y24.346
X17.792 Y24.336
X17.787 Y24.327
X17.781 Y24.317
X17.776 Y24.309
X17.77 Y24.3
X17.764 Y24.291
X17.757 Y24.283
X17.75 Y24.275
X17.743 Y24.268
X17.735 Y24.261
X17.727 Y24.254
X17.719 Y24.247
X17.71 Y24.241
X17.701 Y24.235
X17.683 Y24.223
X17.655 Y24.206
X17.64 Y24.199
X17.617 Y24.19
X17.601 Y24.184
X17.594 Y24.181
X17.578 Y24.177
X17.562 Y24.173
X17.546 Y24.169
X17.538 Y24.168
X17.521 Y24.166
X17.505 Y24.164
X17.48 Y24.163
X17.463 Y24.162
X16.839
X16.808 Y24.163
X16.797 Y24.164
X16.787 Y24.165
X16.777 Y24.166
X16.768 Y24.168
X16.758 Y24.17
X16.749 Y24.173
X16.741 Y24.176
X16.733 Y24.18
X16.725 Y24.184
X16.719 Y24.189
X16.712 Y24.195
X16.707 Y24.201
X16.702 Y24.208
X16.697 Y24.216
X16.693 Y24.225
X16.689 Y24.233
X16.686 Y24.243
X16.683 Y24.252
X16.677 Y24.272
X16.674 Y24.282
X16.676 Y24.306
X16.677 Y24.321
X16.68 Y24.335
X16.681 Y24.344
X16.685 Y24.359
X16.689 Y24.373
X16.696 Y24.396
X16.801 Y24.708
X16.246 Y24.251
X16.222 Y24.233
X16.206 Y24.221
X16.198 Y24.215
X16.189 Y24.209
X16.181 Y24.204
X16.172 Y24.199
X16.164 Y24.194
X16.155 Y24.19
X16.146 Y24.186
X16.137 Y24.183
X16.128 Y24.179
X16.118 Y24.177
X16.109 Y24.174
X16.099 Y24.172
X16.079 Y24.168
X16.069 Y24.167
X16.049 Y24.164
X16.029 Y24.162
X15.728
X16.355 Y25.931
X16.882
X16.441 Y24.686
X16.888 Y25.052
X16.917 Y25.073
X16.947 Y25.093
X16.962 Y25.103
X16.977 Y25.112
X16.992 Y25.121
X17.008 Y25.13
X17.023 Y25.138
X17.039 Y25.145
X17.055 Y25.152
X17.071 Y25.159
X17.088 Y25.164
X17.105 Y25.169
X17.122 Y25.173
X17.139 Y25.177
X17.156 Y25.18
X17.174 Y25.183
X17.191 Y25.186
X17.209 Y25.188
X17.227 Y25.19
X17.28 Y25.194
X17.302 Y25.191
X17.312 Y25.189
X17.323 Y25.187
X17.333 Y25.185
X17.343 Y25.182
X17.352 Y25.179
X17.361 Y25.176
X17.369 Y25.172
X17.377 Y25.167
X17.384 Y25.162
X17.391 Y25.156
X17.396 Y25.15
X17.402 Y25.143
X17.406 Y25.135
X17.41 Y25.126
X17.413 Y25.117
X17.416 Y25.108
X17.418 Y25.098
X17.42 Y25.088
X17.424 Y25.067
X17.427 Y25.045
X17.425 Y25.018
X17.423 Y25.003
X17.421 Y24.992
X17.419 Y24.982
X17.417 Y24.971
X17.412 Y24.956
X17.407 Y24.941
X17.4 Y24.92
X17.214 Y24.396
X17.818
Z0.9
G0 Z2.
X16.17 Y25.702
Z0.9
G1 Z-0.1 F40.
X16.164 Y25.692
X16.157 Y25.683
X16.15 Y25.674
X16.142 Y25.665
X16.126 Y25.647
X16.102 Y25.621
X16.071 Y25.598
X16.05 Y25.584
X16.04 Y25.577
X16.029 Y25.57
X16.018 Y25.564
X16.007 Y25.558
X15.996 Y25.553
X15.985 Y25.548
X15.974 Y25.543
X15.962 Y25.539
X15.95 Y25.536
X15.938 Y25.533
X15.926 Y25.53
X15.914 Y25.528
X15.901 Y25.526
X15.889 Y25.524
X15.864 Y25.521
X15.839 Y25.519
X15.826 Y25.518
X15.8 Y25.52
X15.775 Y25.523
X15.75 Y25.526
X15.738 Y25.528
X15.726 Y25.53
X15.714 Y25.533
X15.701 Y25.536
X15.69 Y25.539
X15.678 Y25.543
X15.667 Y25.548
X15.656 Y25.553
X15.645 Y25.558
X15.634 Y25.564
X15.623 Y25.57
X15.612 Y25.577
X15.602 Y25.584
X15.581 Y25.598
X15.561 Y25.613
X15.55 Y25.621
X15.534 Y25.638
X15.518 Y25.656
X15.503 Y25.674
X15.496 Y25.683
X15.489 Y25.692
X15.482 Y25.702
X15.476 Y25.712
X15.471 Y25.722
X15.466 Y25.732
X15.461 Y25.742
X15.457 Y25.753
X15.454 Y25.764
X15.451 Y25.775
X15.448 Y25.786
X15.446 Y25.798
X15.444 Y25.809
X15.442 Y25.821
X15.439 Y25.844
X15.436 Y25.868
X15.437 Y25.89
X15.439 Y25.905
X15.441 Y25.92
X15.445 Y25.942
X15.448 Y25.956
X15.403 Y25.96
X15.389 Y25.961
X15.364 Y25.962
X15.349 Y25.961
X15.319 Y25.958
X15.305 Y25.956
X15.29 Y25.954
X15.276 Y25.951
X15.263 Y25.948
X15.25 Y25.945
X15.238 Y25.94
X15.226 Y25.935
X15.215 Y25.929
X15.205 Y25.922
X15.196 Y25.914
X15.188 Y25.905
X15.181 Y25.895
X15.174 Y25.884
X15.169 Y25.872
X15.164 Y25.86
X15.159 Y25.847
X15.155 Y25.833
X15.151 Y25.819
X15.145 Y25.791
X15.142 Y25.776
X15.149 Y25.739
X15.156 Y25.703
X15.164 Y25.666
X15.168 Y25.648
X15.177 Y25.612
X15.182 Y25.594
X15.187 Y25.576
X15.199 Y25.541
X15.205 Y25.524
X15.224 Y25.471
X15.231 Y25.454
X15.252 Y25.402
X15.273 Y25.35
X15.297 Y25.287
X15.313 Y25.245
X15.321 Y25.224
X15.328 Y25.202
X15.335 Y25.181
X15.342 Y25.16
X15.349 Y25.139
X15.355 Y25.117
X15.361 Y25.096
X15.366 Y25.074
X15.372 Y25.052
X15.376 Y25.031
X15.38 Y25.009
X15.384 Y24.987
X15.387 Y24.965
X15.391 Y24.942
X15.396 Y24.898
X15.404 Y24.831
X15.392 Y24.764
X15.385 Y24.73
X15.378 Y24.697
X15.37 Y24.664
X15.361 Y24.632
X15.351 Y24.601
X15.34 Y24.571
X15.328 Y24.542
X15.313 Y24.514
X15.297 Y24.487
X15.279 Y24.461
X15.259 Y24.437
X15.238 Y24.414
X15.215 Y24.392
X15.19 Y24.372
X15.164 Y24.352
X15.137 Y24.333
X15.109 Y24.315
X15.08 Y24.297
X15.051 Y24.279
X15.021 Y24.263
X14.96 Y24.229
X14.929 Y24.218
X14.866 Y24.195
X14.835 Y24.184
X14.803 Y24.174
X14.772 Y24.164
X14.74 Y24.154
X14.709 Y24.145
X14.677 Y24.136
X14.645 Y24.128
X14.613 Y24.121
X14.581 Y24.114
X14.548 Y24.109
X14.516 Y24.104
X14.483 Y24.1
X14.45 Y24.096
X14.417 Y24.093
X14.384 Y24.09
X14.351 Y24.088
X14.318 Y24.086
X14.252 Y24.083
X14.185 Y24.081
X14.155 Y24.082
X14.093 Y24.084
X14.032 Y24.087
X14.002 Y24.088
X13.972 Y24.09
X13.941 Y24.093
X13.911 Y24.095
X13.881 Y24.098
X13.851 Y24.102
X13.821 Y24.107
X13.791 Y24.111
X13.761 Y24.117
X13.731 Y24.123
X13.701 Y24.13
X13.672 Y24.137
X13.642 Y24.144
X13.613 Y24.152
X13.583 Y24.16
X13.554 Y24.168
X13.466 Y24.194
X13.409 Y24.217
X13.38 Y24.229
X13.353 Y24.242
X13.325 Y24.254
X13.299 Y24.268
X13.273 Y24.282
X13.248 Y24.297
X13.224 Y24.312
X13.201 Y24.329
X13.18 Y24.347
X13.16 Y24.366
X13.142 Y24.386
X13.125 Y24.408
X13.111 Y24.431
X13.097 Y24.456
X13.085 Y24.481
X13.075 Y24.508
X13.065 Y24.535
X13.056 Y24.563
X13.047 Y24.592
X13.04 Y24.621
X13.032 Y24.651
X13.025 Y24.68
X13.042 Y24.723
X13.059 Y24.766
X13.077 Y24.808
X13.096 Y24.849
X13.116 Y24.889
X13.137 Y24.926
X13.16 Y24.961
X13.185 Y24.994
X13.212 Y25.023
X13.241 Y25.049
X13.273 Y25.072
X13.308 Y25.091
X13.344 Y25.107
X13.383 Y25.121
X13.423 Y25.132
X13.465 Y25.14
X13.508 Y25.147
X13.553 Y25.152
X13.599 Y25.155
X13.646 Y25.157
X13.693 Y25.158
X13.741 Y25.159
X13.789 Y25.158
X13.838
X14.396
X14.503 Y24.923
X14.068
X14.031 Y24.922
X14.007 Y24.921
X13.982 Y24.919
X13.958 Y24.916
X13.946 Y24.915
X13.934 Y24.913
X13.922 Y24.911
X13.91 Y24.908
X13.898 Y24.905
X13.886 Y24.902
X13.875 Y24.899
X13.851 Y24.892
X13.828 Y24.884
X13.794 Y24.871
X13.782 Y24.866
X13.761 Y24.854
X13.75 Y24.847
X13.729 Y24.834
X13.719 Y24.827
X13.709 Y24.82
X13.7 Y24.813
X13.691 Y24.805
X13.683 Y24.797
X13.675 Y24.789
X13.668 Y24.78
X13.662 Y24.771
X13.656 Y24.761
X13.651 Y24.75
X13.646 Y24.74
X13.643 Y24.729
X13.639 Y24.717
X13.636 Y24.706
X13.633 Y24.694
X13.628 Y24.67
X13.624 Y24.645
X13.631 Y24.615
X13.639 Y24.585
X13.644 Y24.571
X13.649 Y24.557
X13.654 Y24.543
X13.66 Y24.53
X13.666 Y24.517
X13.674 Y24.505
X13.682 Y24.493
X13.691 Y24.482
X13.701 Y24.472
X13.711 Y24.462
X13.722 Y24.453
X13.734 Y24.445
X13.747 Y24.436
X13.759 Y24.428
X13.773 Y24.421
X13.786 Y24.414
X13.814 Y24.399
X13.842 Y24.386
X13.886 Y24.37
X13.915 Y24.36
X13.93 Y24.355
X13.959 Y24.346
X13.974 Y24.342
X14.004 Y24.335
X14.019 Y24.332
X14.034 Y24.329
X14.049 Y24.326
X14.064 Y24.324
X14.095 Y24.321
X14.11 Y24.319
X14.141 Y24.317
X14.172 Y24.316
X14.203 Y24.314
X14.256 Y24.317
X14.292 Y24.319
X14.31 Y24.32
X14.327 Y24.322
X14.345 Y24.324
X14.362 Y24.327
X14.38 Y24.33
X14.397 Y24.334
X14.414 Y24.338
X14.431 Y24.342
X14.447 Y24.347
X14.464 Y24.353
X14.48 Y24.36
X14.497 Y24.366
X14.513 Y24.373
X14.545 Y24.389
X14.577 Y24.404
X14.608 Y24.421
X14.636 Y24.444
X14.663 Y24.467
X14.676 Y24.479
X14.689 Y24.492
X14.701 Y24.504
X14.712 Y24.517
X14.723 Y24.53
X14.733 Y24.543
X14.742 Y24.557
X14.751 Y24.572
X14.758 Y24.587
X14.765 Y24.602
X14.77 Y24.618
X14.775 Y24.635
X14.779 Y24.651
X14.783 Y24.668
X14.786 Y24.685
X14.789 Y24.703
X14.791 Y24.721
X14.795 Y24.756
X14.797 Y24.774
X14.79 Y24.833
X14.788 Y24.852
X14.782 Y24.891
X14.779 Y24.91
X14.775 Y24.93
X14.771 Y24.949
X14.767 Y24.968
X14.762 Y24.987
X14.757 Y25.006
X14.752 Y25.025
X14.74 Y25.062
X14.734 Y25.081
X14.721 Y25.118
X14.707 Y25.155
X14.692 Y25.191
X14.67 Y25.247
X14.648 Y25.302
X14.634 Y25.34
X14.627 Y25.358
X14.614 Y25.396
X14.608 Y25.415
X14.602 Y25.434
X14.597 Y25.453
X14.592 Y25.472
X14.587 Y25.492
X14.583 Y25.511
X14.579 Y25.53
X14.576 Y25.55
X14.572 Y25.569
X14.569 Y25.589
X14.564 Y25.629
X14.557 Y25.688
X14.576 Y25.736
X14.596 Y25.784
X14.616 Y25.831
X14.637 Y25.877
X14.659 Y25.921
X14.683 Y25.963
X14.708 Y26.003
X14.736 Y26.039
X14.766 Y26.072
X14.799 Y26.101
X14.835 Y26.126
X14.873 Y26.148
X14.914 Y26.166
X14.957 Y26.181
X15.002 Y26.193
X15.05 Y26.203
X15.098 Y26.211
X15.148 Y26.216
X15.199 Y26.22
X15.252 Y26.222
X15.305 Y26.223
X15.358
X15.413
X15.467
X15.829
X15.866 Y26.219
X15.89 Y26.216
X15.902 Y26.215
X15.914 Y26.212
X15.925 Y26.21
X15.937 Y26.208
X15.949 Y26.205
X15.96 Y26.201
X15.971 Y26.197
X15.982 Y26.192
X15.993 Y26.188
X16.004 Y26.182
X16.014 Y26.176
X16.025 Y26.17
X16.045 Y26.157
X16.065 Y26.143
X16.095 Y26.122
X16.112 Y26.104
X16.129 Y26.086
X16.137 Y26.077
X16.145 Y26.068
X16.153 Y26.058
X16.16 Y26.049
X16.167 Y26.039
X16.173 Y26.029
X16.179 Y26.019
X16.185 Y26.008
X16.19 Y25.998
X16.194 Y25.987
X16.198 Y25.976
X16.201 Y25.964
X16.204 Y25.953
X16.206 Y25.941
X16.209 Y25.929
X16.212 Y25.905
X16.217 Y25.868
X16.214 Y25.844
X16.211 Y25.821
X16.209 Y25.809
X16.207 Y25.798
X16.205 Y25.786
X16.202 Y25.775
X16.199 Y25.764
X16.196 Y25.753
X16.192 Y25.742
X16.187 Y25.732
X16.182 Y25.722
X16.176 Y25.712
X16.17 Y25.702
Z0.9
G0 Z2.
X15.101 Y28.211
Z0.9
G1 Z-0.1 F40.
X14.931
Y29.535
X14.856
Z0.9
G0 Z2.
Y29.541
Z0.9
G1 Z-0.1 F40.
X14.964 Y30.121
X15.101
Y28.211
Z0.9
G0 Z2.
X14.594
Z0.9
G1 Z-0.1 F40.
X14.423
Y29.535
X14.348
Z0.9
G0 Z2.
Y29.541
Z0.9
G1 Z-0.1 F40.
X14.456 Y30.121
X14.594
Y28.211
Z0.9
G0 Z2.
X13.425 Y30.638
Z0.9
G1 Z-0.1 F40.
X12.425 Y32.37
X13.075 Y32.745
X14.075 Y31.013
X13.425 Y30.638
Z0.9
G0 Z2.
X11.519 Y26.818
Z0.9
G1 Z-0.1 F40.
X11.523 Y26.816
X11.531 Y26.811
X11.539 Y26.806
X11.55 Y26.798
X11.557 Y26.793
X11.568 Y26.778
X11.574 Y26.771
X11.579 Y26.764
X11.581 Y26.76
X11.585 Y26.752
X11.588 Y26.744
X11.591 Y26.735
X11.592 Y26.727
X11.594 Y26.718
X11.596 Y26.699
Y26.695
Y25.056
X11.595 Y25.042
X11.593 Y25.028
X11.592 Y25.019
X11.591 Y25.015
X11.588 Y25.007
X11.585 Y24.998
X11.581 Y24.991
X11.576 Y24.983
X11.571 Y24.976
X11.563 Y24.965
X11.557 Y24.958
X11.542 Y24.947
X11.539 Y24.944
X11.531 Y24.939
X11.523 Y24.934
X11.515 Y24.931
X11.507 Y24.927
X11.503 Y24.926
X11.499 Y24.925
X11.485 Y24.923
X11.476 Y24.921
X11.458 Y24.92
X10.951
X10.933 Y24.921
X10.924 Y24.923
X10.915 Y24.924
X10.907 Y24.926
X10.903 Y24.927
X10.895 Y24.931
X10.887 Y24.934
X10.879 Y24.939
X10.868 Y24.947
X10.854 Y24.958
X10.843 Y24.972
X10.837 Y24.979
X10.835 Y24.983
X10.83 Y24.991
X10.826 Y24.999
X10.823 Y25.007
X10.821 Y25.015
X10.82 Y25.02
X10.818 Y25.033
X10.816 Y25.051
Y25.056
Y26.695
X10.817 Y26.713
X10.818 Y26.722
X10.82 Y26.731
X10.822 Y26.739
X10.823 Y26.744
X10.826 Y26.752
X10.83 Y26.76
X10.835 Y26.767
X10.84 Y26.775
X10.851 Y26.789
X10.854 Y26.793
X10.868 Y26.804
X10.879 Y26.812
X10.887 Y26.816
X10.895 Y26.82
X10.903 Y26.823
X10.907 Y26.824
X10.915 Y26.826
X10.929 Y26.828
X10.947 Y26.83
X10.951
X11.458
X11.476 Y26.829
X11.49 Y26.827
X11.499 Y26.825
X11.503 Y26.824
X11.511 Y26.821
X11.515 Y26.82
X11.519 Y26.818
Z0.9
G0 Z2.
X11.426 Y26.68
Z0.9
G1 Z-0.1 F40.
X10.986
Y25.07
X11.426
Y26.68
Z0.9
G0 Z2.
X10.498 Y24.92
Z0.9
G1 Z-0.1 F40.
X10.328
Y26.244
X10.253
Z0.9
G0 Z2.
Y26.251
Z0.9
G1 Z-0.1 F40.
X10.361 Y26.83
X10.498
Y24.92
Z0.9
G0 Z2.
X8.987 Y25.925
Z0.9
G1 Z-0.1 F40.
X7.255 Y26.925
X7.63 Y27.575
X9.362 Y26.575
X8.987 Y25.925
Z0.9
G0 Z2.
X9.05 Y20.926
Z0.9
G1 Z-0.1 F40.
X9.375
X9.389 Y20.924
X9.402 Y20.923
X9.411 Y20.921
X9.42 Y20.919
X9.424 Y20.918
X9.432 Y20.915
X9.44 Y20.911
X9.447 Y20.907
X9.455 Y20.902
X9.465 Y20.893
X9.473 Y20.888
X9.484 Y20.873
X9.489 Y20.866
X9.493 Y20.858
X9.498 Y20.851
X9.499 Y20.847
X9.502 Y20.839
X9.505 Y20.83
X9.507 Y20.822
X9.508 Y20.808
X9.51 Y20.79
Y19.151
X9.508 Y19.132
X9.507 Y19.119
X9.505 Y19.111
X9.502 Y19.102
X9.501 Y19.098
X9.498 Y19.09
X9.493 Y19.082
X9.489 Y19.075
X9.484 Y19.067
X9.473 Y19.053
X9.458 Y19.042
X9.451 Y19.037
X9.444 Y19.032
X9.44 Y19.029
X9.432 Y19.026
X9.424 Y19.022
X9.42 Y19.021
X9.411 Y19.019
X9.402 Y19.018
X9.394 Y19.017
X9.375 Y19.015
X8.898
X8.884 Y19.016
X8.871 Y19.018
X8.862 Y19.019
X8.853 Y19.021
X8.849 Y19.023
X8.845 Y19.024
X8.837 Y19.028
X8.833 Y19.03
X8.825 Y19.034
X8.818 Y19.039
X8.807 Y19.047
X8.799 Y19.053
X8.788 Y19.067
X8.782 Y19.074
X8.777 Y19.082
X8.773 Y19.09
X8.769 Y19.098
X8.768 Y19.102
X8.766 Y19.11
X8.764 Y19.119
X8.762 Y19.128
X8.761 Y19.142
X8.76 Y19.151
Y19.573
X8.93
Y19.165
X9.34
Y19.872
X8.887
X8.874 Y19.873
X8.86 Y19.875
X8.856
X8.851 Y19.876
X8.843 Y19.878
X8.839 Y19.879
X8.831 Y19.882
X8.823 Y19.886
X8.819 Y19.889
X8.812 Y19.893
X8.801 Y19.901
X8.79 Y19.91
X8.779 Y19.924
X8.774 Y19.932
X8.769 Y19.939
X8.765 Y19.947
X8.763 Y19.951
X8.76 Y19.959
X8.758 Y19.967
X8.756 Y19.976
X8.755 Y19.985
X8.753 Y20.003
Y20.008
Y20.79
X8.754 Y20.808
X8.755 Y20.817
X8.757 Y20.826
X8.759 Y20.834
X8.76 Y20.839
X8.763 Y20.847
X8.767 Y20.855
X8.769 Y20.858
X8.774 Y20.866
X8.779 Y20.873
X8.79 Y20.888
X8.804 Y20.899
X8.812 Y20.904
X8.819 Y20.909
X8.823 Y20.911
X8.831 Y20.915
X8.839 Y20.918
X8.847 Y20.92
X8.851 Y20.921
X8.86 Y20.923
X8.878 Y20.925
X8.887 Y20.926
X9.05
Z0.9
G0 Z2.
X9.34 Y20.775
Z0.9
G1 Z-0.1 F40.
X8.923
Y20.02
X9.34
Y20.775
Z0.9
G0 Z2.
X7.5 Y20.
Z0.9
G1 Z-0.1 F40.
Y19.625
X5.5
Y20.375
X7.5
Y20.
Z0.9
G0 Z2.
X10.318 Y15.399
Z0.9
G1 Z-0.1 F40.
X10.325 Y15.404
X10.333 Y15.408
X10.337 Y15.41
X10.345 Y15.413
X10.353 Y15.415
X10.362 Y15.417
X10.371 Y15.418
X10.389 Y15.42
X10.394
X10.888
X10.906 Y15.419
X10.915 Y15.418
X10.924 Y15.416
X10.928 Y15.415
X10.937 Y15.413
X10.945 Y15.41
X10.953 Y15.406
X10.96 Y15.401
X10.971 Y15.394
X10.986 Y15.383
X10.997 Y15.368
X11.005 Y15.357
X11.009 Y15.35
X11.011 Y15.346
X11.015 Y15.338
X11.017 Y15.329
X11.019 Y15.321
X11.021 Y15.308
X11.022 Y15.299
X11.023 Y15.285
Y14.745
X11.022 Y14.727
X11.021 Y14.72
X11.019 Y14.708
X11.017 Y14.697
X11.015 Y14.691
X11.013 Y14.685
X11.011 Y14.68
X11.009 Y14.675
X11.006 Y14.67
X11.003 Y14.665
X11. Y14.66
X10.996 Y14.655
X10.988 Y14.647
X10.979 Y14.638
X10.965 Y14.626
X10.96 Y14.622
X10.781 Y14.51
X10.962 Y14.39
X10.977 Y14.378
X10.986 Y14.37
X10.99 Y14.366
X10.995 Y14.361
X10.998 Y14.357
X11.002 Y14.353
X11.006 Y14.348
X11.009 Y14.343
X11.012 Y14.338
X11.014 Y14.333
X11.017 Y14.328
X11.021 Y14.316
X11.023 Y14.305
X11.025 Y14.293
X11.026 Y14.287
X11.028 Y14.268
Y13.646
X11.027 Y13.632
X11.026 Y13.618
X11.024 Y13.609
X11.022 Y13.601
X11.021 Y13.597
X11.017 Y13.588
X11.013 Y13.581
X11.009 Y13.573
X11.001 Y13.562
X10.992 Y13.551
X10.989 Y13.548
X10.975 Y13.537
X10.963 Y13.529
X10.956 Y13.524
X10.948 Y13.521
X10.939 Y13.517
X10.935 Y13.516
X10.931 Y13.515
X10.922 Y13.513
X10.909 Y13.512
X10.89 Y13.51
X10.387
X10.369 Y13.512
X10.36 Y13.513
X10.352 Y13.514
X10.347 Y13.515
X10.339 Y13.517
X10.335 Y13.519
X10.327 Y13.522
X10.319 Y13.527
X10.312 Y13.531
X10.308 Y13.534
X10.29 Y13.548
X10.279 Y13.562
X10.274 Y13.57
X10.269 Y13.577
X10.267 Y13.581
X10.265 Y13.585
X10.262 Y13.593
X10.26 Y13.597
X10.258 Y13.605
X10.256 Y13.614
X10.255 Y13.623
X10.254 Y13.636
X10.253 Y13.646
Y14.268
X10.255 Y14.286
X10.257 Y14.299
X10.259 Y14.31
X10.262 Y14.322
X10.263 Y14.327
X10.265 Y14.333
X10.268 Y14.338
X10.271 Y14.343
X10.274 Y14.347
X10.277 Y14.352
X10.281 Y14.357
X10.288 Y14.366
X10.297 Y14.374
X10.311 Y14.386
X10.315 Y14.39
X10.501 Y14.51
X10.32 Y14.622
X10.306 Y14.634
X10.297 Y14.642
X10.293 Y14.647
X10.285 Y14.656
X10.281 Y14.66
X10.278 Y14.665
X10.275 Y14.67
X10.272 Y14.675
X10.27 Y14.68
X10.268 Y14.686
X10.266 Y14.691
X10.263 Y14.703
X10.262 Y14.709
X10.26 Y14.721
X10.259 Y14.733
X10.258 Y14.745
Y15.285
X10.259 Y15.299
X10.261 Y15.312
X10.262 Y15.321
X10.264 Y15.329
X10.267 Y15.338
X10.27 Y15.346
X10.275 Y15.353
X10.282 Y15.365
X10.293 Y15.379
X10.296 Y15.383
X10.31 Y15.394
X10.318 Y15.399
Z0.9
G0 Z2.
X10.857 Y14.292
Z0.9
G1 Z-0.1 F40.
X10.64 Y14.435
X10.423 Y14.292
Y13.66
X10.857
Y14.292
Z0.9
G0 Z2.
X10.64 Y14.581
Z0.9
G1 Z-0.1 F40.
X10.852 Y14.722
Y15.27
X10.428
Y14.722
X10.64 Y14.581
Z0.9
G0 Z2.
X9.175 Y13.75
Z0.9
G1 Z-0.1 F40.
X9.362 Y13.425
X7.63 Y12.425
X7.255 Y13.075
X8.987 Y14.075
X9.175 Y13.75
Z0.9
G0 Z2.
X14.253 Y11.906
Z0.9
G1 Z-0.1 F40.
X15.01
Y11.819
X14.6 Y9.996
X14.433
X14.831 Y11.756
X14.423
Y11.476
X14.253
Y11.906
Z0.9
G0 Z2.
X15.67 Y11.
Z0.9
G1 Z-0.1 F40.
X16.536 Y11.5
Z0.9
G0 Z2.
X15. Y13.5
Z0.9
G1 Z-0.1 F40.
X16.
Z0.9
G0 Z2.
X15.67 Y16.
Z0.9
G1 Z-0.1 F40.
X16.536 Y15.5
Z0.9
G0 Z2.
X17.5 Y17.83
Z0.9
G1 Z-0.1 F40.
X18. Y16.964
Z0.9
G0 Z2.
X20. Y18.5
Z0.9
G1 Z-0.1 F40.
Y17.5
Z0.9
G0 Z2.
X22.5 Y17.83
Z0.9
G1 Z-0.1 F40.
X22. Y16.964
Z0.9
G0 Z2.
X24.33 Y16.
Z0.9
G1 Z-0.1 F40.
X23.464 Y15.5
Z0.9
G0 Z2.
X25. Y13.5
Z0.9
G1 Z-0.1 F40.
X24.
Z0.9
G0 Z2.
X25.297 Y11.92
Z0.9
G1 Z-0.1 F40.
X25.995
Y11.77
X25.463
X25.442 Y11.21
X25.875
X25.888 Y11.209
X25.902 Y11.207
X25.906
X25.915 Y11.205
X25.919 Y11.204
X25.927 Y11.201
X25.935 Y11.198
X25.943 Y11.193
X25.954 Y11.186
X25.969 Y11.175
X25.972 Y11.172
X25.983 Y11.158
X25.991 Y11.147
X25.996 Y11.139
X26. Y11.131
X26.003 Y11.123
X26.005 Y11.115
X26.007 Y11.106
X26.008 Y11.097
X26.01 Y11.079
Y11.075
Y10.146
X26.008 Y10.127
X26.007 Y10.118
X26.006 Y10.11
X26.004 Y10.101
X26.003 Y10.097
X26. Y10.089
X25.996 Y10.081
X25.991 Y10.073
X25.983 Y10.062
X25.972 Y10.048
X25.958 Y10.037
X25.947 Y10.029
X25.939 Y10.024
X25.931 Y10.021
X25.923 Y10.017
X25.919 Y10.016
X25.91 Y10.014
X25.897 Y10.012
X25.879 Y10.01
X25.875
X25.404
X25.386 Y10.012
X25.378 Y10.013
X25.369 Y10.014
X25.36 Y10.016
X25.352 Y10.019
X25.344 Y10.022
X25.333 Y10.029
X25.325 Y10.034
X25.308 Y10.048
X25.296 Y10.062
X25.289 Y10.073
X25.287 Y10.077
X25.282 Y10.085
X25.279 Y10.093
X25.278 Y10.097
X25.275 Y10.105
X25.274 Y10.114
X25.272 Y10.123
X25.271 Y10.136
X25.27 Y10.146
Y10.63
X25.44
Y10.16
X25.84
Y11.06
X25.275
X25.297 Y11.92
Z0.9
G0 Z2.
X24.33 Y11.
Z0.9
G1 Z-0.1 F40.
X23.464 Y11.5
Z0.9
G0 Z2.
X22.5 Y9.17
Z0.9
G1 Z-0.1 F40.
X22. Y10.036
Z0.9
G0 Z2.
X20. Y8.5
Z0.9
G1 Z-0.1 F40.
Y9.5
Z0.9
G0 Z2.
Y7.5
Z0.9
G1 Z-0.1 F40.
X20.375
Y5.5
X19.625
Y7.5
X20.
Z0.9
G0 Z2.
X17.5 Y9.17
Z0.9
G1 Z-0.1 F40.
X18. Y10.036
Z0.9
G0 Z2.
X14.075 Y8.987
Z0.9
G1 Z-0.1 F40.
X13.075 Y7.255
X12.425 Y7.63
X13.425 Y9.362
X14.075 Y8.987
Z0.9
G0 Z2.
X25.925
Z0.9
G1 Z-0.1 F40.
X26.575 Y9.362
X27.575 Y7.63
X26.925 Y7.255
X25.925 Y8.987
Z0.9
G0 Z2.
X30.638 Y13.425
Z0.9
G1 Z-0.1 F40.
X31.013 Y14.075
X32.745 Y13.075
X32.37 Y12.425
X30.638 Y13.425
Z0.9
G0 Z2.
X30.01 Y14.008
Z0.9
G1 Z-0.1 F40.
X29.865
Y13.51
X29.705
Y14.008
X29.165
Y14.095
X29.628 Y15.42
X29.788
Z0.9
G0 Z2.
Y15.413
Z0.9
G1 Z-0.1 F40.
X29.348 Y14.152
X29.705
Y14.845
X29.865
Y14.152
X30.01
Y14.008
Z0.9
G0 Z2.
X32.5 Y19.625
Z0.9
G1 Z-0.1 F40.
Y20.375
X34.5
Y19.625
X32.5
Z0.9
G0 Z2.
X25.71 Y28.21
Z0.9
G1 Z-0.1 F40.
X25.539
Y29.535
X25.465
Z0.9
G0 Z2.
Y29.541
Z0.9
G1 Z-0.1 F40.
X25.572 Y30.12
X25.71
Y28.21
Z0.9
G0 Z2.
X26.575 Y30.638
Z0.9
G1 Z-0.1 F40.
X25.925 Y31.013
X26.925 Y32.745
X27.575 Y32.37
X26.575 Y30.638
Z0.9
G0 Z2.
X20.804 Y30.844
Z0.9
G1 Z-0.1 F40.
Y30.439
X20.801 Y30.41
X20.799 Y30.395
X20.797 Y30.381
X20.794 Y30.367
X20.791 Y30.353
X20.787 Y30.339
X20.782 Y30.325
X20.777 Y30.312
X20.768 Y30.291
X20.759 Y30.271
X20.254 Y29.219
X20.806
Y29.069
X20.049
Y29.159
X20.633 Y30.374
Y30.829
X20.244
Y30.4
X20.073
Y30.844
X20.074 Y30.862
X20.076 Y30.871
X20.077 Y30.88
X20.079 Y30.888
X20.08 Y30.893
X20.083 Y30.901
X20.087 Y30.909
X20.092 Y30.916
X20.1 Y30.927
X20.111 Y30.942
X20.125 Y30.953
X20.136 Y30.961
X20.144 Y30.965
X20.152 Y30.969
X20.16 Y30.972
X20.164 Y30.973
X20.173 Y30.975
X20.186 Y30.977
X20.204 Y30.979
X20.208
X20.669
X20.687 Y30.978
X20.696 Y30.977
X20.705 Y30.975
X20.713 Y30.973
X20.717 Y30.972
X20.725 Y30.969
X20.733 Y30.965
X20.741 Y30.961
X20.752 Y30.953
X20.766 Y30.942
X20.78 Y30.924
X20.785 Y30.916
X20.79 Y30.909
X20.794 Y30.901
X20.797 Y30.893
X20.799 Y30.884
X20.801 Y30.875
X20.802 Y30.867
X20.804 Y30.848
Y30.844
Z0.9
G0 Z2.
X19.533 Y30.4
Z0.9
G1 Z-0.1 F40.
X19.641 Y30.979
X19.779
Y29.069
X19.608
Y30.393
X19.533
Z0.9
G0 Z2.
X20. Y31.75
Z0.9
G1 Z-0.1 F40.
X19.25 Y34.5
X20.75
X20. Y31.75
Z0.9
G0 Z2.
Y34.5
Z0.9
G1 Z-0.1 F40.
Y31.75
Z0.9
G0 Z3.

M9
G53 Z0.
M30
