(1005)
(CIRCLE CUT)
(T1  D=1.587 CR=0. - ZMIN=-0.45 - FLAT END MILL)
G0 G90 G94 G17
G21
G53 Z0.

(CIRCULAR1)
M5
M9
T1
S12000 M3
G4 P4.
G55
M9
G0 X37.566 Y20.159
Z10.
Z1.83
G1 Z-0.011 F200.
G18 G3 X37.407 Z-0.17 I-0.159 K0.
G1 X37.327
G17 G3 X37.169 Y20. I0. J-0.159
G2 X2.831 I-17.169 J0.
X37.169 I17.169 J0.
G3 X37.327 Y19.841 I0.159 J0.
G1 X37.407
G18 G2 X37.566 Z-0.011 I0. K0.159
G0 Z5.
Y20.159
Z1.76
G1 Z-0.081 F200.
G3 X37.407 Z-0.24 I-0.159 K0.
G1 X37.327
G17 G3 X37.169 Y20. I0. J-0.159
G2 X2.831 I-17.169 J0.
X37.169 I17.169 J0.
G3 X37.327 Y19.841 I0.159 J0.
G1 X37.407
G18 G2 X37.566 Z-0.081 I0. K0.159
G0 Z5.
Y20.159
Z1.69
G1 Z-0.151 F200.
G3 X37.407 Z-0.31 I-0.159 K0.
G1 X37.327
G17 G3 X37.169 Y20. I0. J-0.159
G2 X2.831 I-17.169 J0.
X37.169 I17.169 J0.
G3 X37.327 Y19.841 I0.159 J0.
G1 X37.407
G18 G2 X37.566 Z-0.151 I0. K0.159
G0 Z5.
Y20.159
Z1.62
G1 Z-0.221 F200.
G3 X37.407 Z-0.38 I-0.159 K0.
G1 X37.327
G17 G3 X37.169 Y20. I0. J-0.159
G2 X2.831 I-17.169 J0.
X37.169 I17.169 J0.
G3 X37.327 Y19.841 I0.159 J0.
G1 X37.407
G18 G2 X37.566 Z-0.221 I0. K0.159
G0 Z5.
Y20.159
Z1.55
G1 Z-0.291 F200.
G3 X37.407 Z-0.45 I-0.159 K0.
G1 X37.327
G17 G3 X37.169 Y20. I0. J-0.159
G2 X2.831 I-17.169 J0.
X37.169 I17.169 J0.
G3 X37.327 Y19.841 I0.159 J0.
G1 X37.407
G18 G2 X37.566 Z-0.291 I0. K0.159
G0 Z10.
G17

M9
G53 Z0.
M30
